;FLAVOR:Repetier
;TIME:13020
;MINX:44.966
;MINY:44.966
;MINZ:0.3
;MAXX:155.034
;MAXY:155.034
;MAXZ:24.9
;Generated with Cura_SteamEngine master
M190 S60
M104 S190
M109 S190
M82 ;absolute extrusion mode
G21 ;metric values
G90 ;absolute positioning
M82 ;set extruder to absolute mode
M107 ;start with the fan off
G28 X0 Y0 ;move X/Y to min endstops
G28 Z0 ;move Z to min endstops
G1 Z15.0 F9000 ;move the platform down 15mm
G92 E0 ;zero the extruded length
G1 F200 E3 ;extrude 3mm of feed stock
G92 E0 ;zero the extruded length again
G1 F9000
;Put printing message on LCD screen
M117 Printing...
G92 E0
G92 E0
G1 F1500 E-6.5
;LAYER_COUNT:124
;LAYER:0
M107
G0 F3600 X60.808 Y61.361 Z0.3
;TYPE:SKIRT
G1 F1500 E0
G1 F1800 X61.351 Y60.819 E0.03828
G1 X64.782 Y57.709 E0.26931
G1 X65.372 Y57.224 E0.30741
G1 X69.1 Y54.458 E0.539
G1 X69.74 Y54.031 E0.57739
G1 X73.718 Y51.648 E0.80874
G1 X74.39 Y51.289 E0.84675
G1 X78.587 Y49.303 E1.07839
G1 X79.294 Y49.01 E1.11658
G1 X83.648 Y47.451 E1.3473
G1 X84.382 Y47.228 E1.38557
G1 X88.882 Y46.101 E1.61701
G1 X89.632 Y45.952 E1.65516
G1 X94.219 Y45.271 E1.88652
G1 X94.979 Y45.196 E1.92462
G1 X99.61 Y44.967 E2.15594
G1 X100.378 Y44.966 E2.19426
G1 X105.01 Y45.194 E2.42563
G1 X105.771 Y45.269 E2.46378
G1 X110.357 Y45.949 E2.69508
G1 X111.106 Y46.098 E2.73318
G1 X115.606 Y47.224 E2.96461
G1 X116.339 Y47.446 E3.00282
G1 X120.694 Y49.003 E3.23356
G1 X121.404 Y49.298 E3.27191
G1 X125.601 Y51.284 E3.50356
G1 X126.273 Y51.642 E3.54155
G1 X130.252 Y54.025 E3.77294
G1 X130.89 Y54.452 E3.81124
G1 X134.617 Y57.216 E4.04274
G1 X135.208 Y57.7 E4.08085
G1 X138.639 Y60.808 E4.31181
G1 X139.181 Y61.351 E4.35008
G1 X142.291 Y64.782 E4.58111
G1 X142.776 Y65.372 E4.61922
G1 X145.541 Y69.098 E4.8507
G1 X145.968 Y69.738 E4.88909
G1 X148.352 Y73.718 E5.12054
G1 X148.711 Y74.39 E5.15856
G1 X150.698 Y78.589 E5.39032
G1 X150.991 Y79.295 E5.42845
G1 X152.548 Y83.643 E5.65886
G1 X152.771 Y84.378 E5.69718
G1 X153.899 Y88.882 E5.92883
G1 X154.048 Y89.631 E5.96693
G1 X154.729 Y94.216 E6.19818
G1 X154.804 Y94.977 E6.23633
G1 X155.033 Y99.609 E6.46771
G1 X155.034 Y100.377 E6.50602
G1 X154.806 Y105.01 E6.73744
G1 X154.731 Y105.771 E6.77559
G1 X154.051 Y110.357 E7.00689
G1 X153.902 Y111.106 E7.04499
G1 X152.776 Y115.606 E7.27642
G1 X152.554 Y116.338 E7.31458
G1 X150.999 Y120.689 E7.5451
G1 X150.704 Y121.4 E7.58351
G1 X148.716 Y125.601 E7.81538
G1 X148.358 Y126.273 E7.85336
G1 X145.975 Y130.252 E8.08475
G1 X145.548 Y130.89 E8.12306
G1 X142.784 Y134.617 E8.35455
G1 X142.3 Y135.208 E8.39266
G1 X139.192 Y138.639 E8.62362
G1 X138.649 Y139.181 E8.6619
G1 X135.218 Y142.291 E8.89293
G1 X134.628 Y142.776 E8.93103
G1 X130.9 Y145.542 E9.16263
G1 X130.26 Y145.969 E9.20101
G1 X126.282 Y148.352 E9.43236
G1 X125.61 Y148.711 E9.47037
G1 X121.413 Y150.697 E9.70202
G1 X120.706 Y150.99 E9.7402
G1 X116.352 Y152.549 E9.97093
G1 X115.618 Y152.772 E10.0092
G1 X111.118 Y153.899 E10.24064
G1 X110.368 Y154.048 E10.27879
G1 X105.781 Y154.729 E10.51014
G1 X105.021 Y154.804 E10.54824
G1 X100.39 Y155.033 E10.77957
G1 X99.622 Y155.034 E10.81788
G1 X94.99 Y154.806 E11.04925
G1 X94.229 Y154.731 E11.0874
G1 X89.643 Y154.051 E11.3187
G1 X88.894 Y153.902 E11.3568
G1 X84.394 Y152.776 E11.58823
G1 X83.661 Y152.554 E11.62644
G1 X79.306 Y150.997 E11.85718
G1 X78.596 Y150.702 E11.89554
G1 X74.399 Y148.716 E12.12718
G1 X73.727 Y148.358 E12.16517
G1 X69.748 Y145.975 E12.39656
G1 X69.109 Y145.548 E12.43491
G1 X65.381 Y142.783 E12.66647
G1 X64.791 Y142.299 E12.70454
G1 X61.359 Y139.19 E12.93557
G1 X60.817 Y138.647 E12.97385
G1 X57.708 Y135.217 E13.20481
G1 X57.223 Y134.626 E13.24295
G1 X54.458 Y130.899 E13.47448
G1 X54.031 Y130.26 E13.51282
G1 X51.648 Y126.282 E13.74417
G1 X51.289 Y125.61 E13.78218
G1 X49.301 Y121.409 E14.01405
G1 X49.007 Y120.702 E14.05225
G1 X47.45 Y116.352 E14.28275
G1 X47.228 Y115.618 E14.32101
G1 X46.101 Y111.118 E14.55245
G1 X45.952 Y110.368 E14.5906
G1 X45.271 Y105.781 E14.82196
G1 X45.196 Y105.021 E14.86006
G1 X44.967 Y100.391 E15.09133
G1 X44.966 Y99.623 E15.12965
G1 X45.194 Y94.99 E15.36107
G1 X45.269 Y94.229 E15.39922
G1 X45.949 Y89.643 E15.63052
G1 X46.098 Y88.894 E15.66862
G1 X47.225 Y84.39 E15.90025
G1 X47.448 Y83.656 E15.93852
G1 X49.003 Y79.309 E16.16885
G1 X49.296 Y78.601 E16.20708
G1 X51.283 Y74.4 E16.43893
G1 X51.642 Y73.727 E16.47698
G1 X54.025 Y69.748 E16.70837
G1 X54.452 Y69.11 E16.74668
G1 X57.216 Y65.383 E16.97817
G1 X57.7 Y64.792 E17.01628
G1 X60.808 Y61.361 E17.24724
G0 F3600 X61.105 Y61.63
G1 F1800 X61.619 Y61.115 E17.28354
G1 X65.05 Y58.005 E17.51457
G1 X65.611 Y57.545 E17.55077
G1 X69.339 Y54.779 E17.78236
G1 X69.945 Y54.374 E17.81872
G1 X73.923 Y51.991 E18.05007
G1 X74.561 Y51.65 E18.08616
G1 X78.758 Y49.664 E18.31781
G1 X79.428 Y49.386 E18.354
G1 X83.782 Y47.827 E18.58473
G1 X84.479 Y47.616 E18.62106
G1 X88.979 Y46.489 E18.8525
G1 X89.69 Y46.347 E18.88867
G1 X94.277 Y45.666 E19.12003
G1 X94.999 Y45.595 E19.15622
G1 X99.63 Y45.366 E19.38755
G1 X100.359 Y45.366 E19.42392
G1 X104.991 Y45.594 E19.65529
G1 X105.712 Y45.665 E19.69143
G1 X110.298 Y46.345 E19.92273
G1 X111.009 Y46.486 E19.95889
G1 X115.509 Y47.612 E20.19032
G1 X116.204 Y47.823 E20.22656
G1 X120.559 Y49.38 E20.4573
G1 X121.233 Y49.659 E20.49369
G1 X125.43 Y51.645 E20.72534
G1 X126.067 Y51.985 E20.76136
G1 X130.046 Y54.368 E20.99275
G1 X130.652 Y54.773 E21.02912
G1 X134.379 Y57.537 E21.26061
G1 X134.939 Y57.997 E21.29677
G1 X138.37 Y61.105 E21.52773
G1 X138.885 Y61.619 E21.56403
G1 X141.995 Y65.05 E21.79506
G1 X142.455 Y65.61 E21.83121
G1 X145.22 Y69.336 E22.0627
G1 X145.625 Y69.943 E22.0991
G1 X148.009 Y73.923 E22.33056
G1 X148.35 Y74.561 E22.36665
G1 X150.337 Y78.76 E22.59841
G1 X150.615 Y79.43 E22.6346
G1 X152.172 Y83.778 E22.86502
G1 X152.383 Y84.475 E22.90135
G1 X153.511 Y88.979 E23.13299
G1 X153.653 Y89.69 E23.16917
G1 X154.334 Y94.275 E23.40042
G1 X154.405 Y94.997 E23.43662
G1 X154.634 Y99.629 E23.66799
G1 X154.634 Y100.358 E23.70436
G1 X154.406 Y104.991 E23.93578
G1 X154.335 Y105.712 E23.97193
G1 X153.655 Y110.298 E24.20322
G1 X153.514 Y111.009 E24.23939
G1 X152.388 Y115.509 E24.47081
G1 X152.177 Y116.203 E24.507
G1 X150.622 Y120.554 E24.73752
G1 X150.343 Y121.229 E24.77396
G1 X148.355 Y125.43 E25.00583
G1 X148.015 Y126.067 E25.04186
G1 X145.632 Y130.046 E25.27325
G1 X145.227 Y130.652 E25.30961
G1 X142.463 Y134.379 E25.5411
G1 X142.003 Y134.939 E25.57726
G1 X138.895 Y138.37 E25.80822
G1 X138.381 Y138.885 E25.84452
G1 X134.95 Y141.995 E26.07555
G1 X134.389 Y142.455 E26.11175
G1 X130.661 Y145.221 E26.34334
G1 X130.055 Y145.626 E26.3797
G1 X126.077 Y148.009 E26.61105
G1 X125.439 Y148.35 E26.64714
G1 X121.242 Y150.336 E26.87879
G1 X120.572 Y150.614 E26.91498
G1 X116.218 Y152.173 E27.14571
G1 X115.521 Y152.384 E27.18204
G1 X111.021 Y153.511 E27.41348
G1 X110.31 Y153.653 E27.44965
G1 X105.723 Y154.334 E27.68101
G1 X105.001 Y154.405 E27.7172
G1 X100.37 Y154.634 E27.94853
G1 X99.641 Y154.634 E27.9849
G1 X95.009 Y154.406 E28.21627
G1 X94.288 Y154.335 E28.25241
G1 X89.702 Y153.655 E28.48371
G1 X88.991 Y153.514 E28.51987
G1 X84.491 Y152.388 E28.7513
G1 X83.796 Y152.177 E28.78754
G1 X79.441 Y150.62 E29.01828
G1 X78.767 Y150.341 E29.05467
G1 X74.57 Y148.355 E29.28632
G1 X73.933 Y148.015 E29.32234
G1 X69.954 Y145.632 E29.55373
G1 X69.348 Y145.227 E29.5901
G1 X65.62 Y142.462 E29.82166
G1 X65.06 Y142.002 E29.85782
G1 X61.628 Y138.893 E30.08885
G1 X61.113 Y138.379 E30.12515
G1 X58.004 Y134.949 E30.35611
G1 X57.544 Y134.388 E30.3923
G1 X54.779 Y130.661 E30.62383
G1 X54.374 Y130.055 E30.66019
G1 X51.991 Y126.077 E30.89154
G1 X51.65 Y125.439 E30.92763
G1 X49.662 Y121.238 E31.1595
G1 X49.384 Y120.567 E31.19574
G1 X47.827 Y116.217 E31.42624
G1 X47.616 Y115.521 E31.46253
G1 X46.489 Y111.021 E31.69397
G1 X46.347 Y110.31 E31.73014
G1 X45.666 Y105.723 E31.96149
G1 X45.595 Y105.002 E31.99764
G1 X45.366 Y100.372 E32.22891
G1 X45.366 Y99.642 E32.26533
G1 X45.594 Y95.009 E32.49675
G1 X45.665 Y94.288 E32.5329
G1 X46.345 Y89.702 E32.7642
G1 X46.486 Y88.991 E32.80036
G1 X47.613 Y84.487 E33.03199
G1 X47.824 Y83.791 E33.06828
G1 X49.379 Y79.444 E33.29861
G1 X49.658 Y78.772 E33.33491
G1 X51.645 Y74.571 E33.56676
G1 X51.985 Y73.933 E33.60283
G1 X54.368 Y69.954 E33.83422
G1 X54.773 Y69.348 E33.87058
G1 X57.537 Y65.621 E34.10207
G1 X57.997 Y65.061 E34.13823
G1 X61.105 Y61.63 E34.36919
G0 F3600 X61.401 Y61.898
G1 F1800 X61.888 Y61.412 E34.40352
G1 X65.319 Y58.302 E34.63455
G1 X65.849 Y57.866 E34.66879
G1 X69.577 Y55.1 E34.90038
G1 X70.151 Y54.717 E34.93481
G1 X74.129 Y52.334 E35.16615
G1 X74.732 Y52.012 E35.20026
G1 X78.929 Y50.026 E35.43191
G1 X79.563 Y49.763 E35.46615
G1 X83.917 Y48.204 E35.69688
G1 X84.576 Y48.004 E35.73124
G1 X89.076 Y46.877 E35.96268
G1 X89.749 Y46.743 E35.99691
G1 X94.336 Y46.062 E36.22827
G1 X95.018 Y45.995 E36.26245
G1 X99.649 Y45.766 E36.49378
G1 X100.339 Y45.765 E36.5282
G1 X104.971 Y45.993 E36.75957
G1 X105.654 Y46.061 E36.79382
G1 X110.24 Y46.741 E37.02512
G1 X110.912 Y46.874 E37.05929
G1 X115.412 Y48 E37.29072
G1 X116.07 Y48.2 E37.32503
G1 X120.425 Y49.757 E37.55577
G1 X121.062 Y50.021 E37.59017
G1 X125.259 Y52.007 E37.82182
G1 X125.862 Y52.329 E37.85592
G1 X129.841 Y54.712 E38.08732
G1 X130.414 Y55.094 E38.12167
G1 X134.141 Y57.858 E38.35317
G1 X134.671 Y58.293 E38.38737
G1 X138.102 Y61.401 E38.61834
G1 X138.588 Y61.888 E38.65266
G1 X141.698 Y65.319 E38.88369
G1 X142.133 Y65.849 E38.9179
G1 X144.898 Y69.575 E39.14938
G1 X145.282 Y70.149 E39.18384
G1 X147.666 Y74.129 E39.4153
G1 X147.988 Y74.732 E39.4494
G1 X149.975 Y78.931 E39.68116
G1 X150.238 Y79.565 E39.7154
G1 X151.795 Y83.913 E39.94582
G1 X151.995 Y84.572 E39.98017
G1 X153.123 Y89.076 E40.21182
G1 X153.257 Y89.749 E40.24606
G1 X153.938 Y94.334 E40.47731
G1 X154.005 Y95.016 E40.5115
G1 X154.234 Y99.648 E40.74287
G1 X154.235 Y100.338 E40.7773
G1 X154.007 Y104.971 E41.00872
G1 X153.939 Y105.654 E41.04296
G1 X153.259 Y110.24 E41.27426
G1 X153.126 Y110.912 E41.30844
G1 X152 Y115.412 E41.53986
G1 X151.801 Y116.069 E41.57411
G1 X150.246 Y120.42 E41.80463
G1 X149.981 Y121.058 E41.8391
G1 X147.993 Y125.259 E42.07097
G1 X147.671 Y125.862 E42.10507
G1 X145.288 Y129.841 E42.33647
G1 X144.906 Y130.414 E42.37082
G1 X142.142 Y134.141 E42.60232
G1 X141.707 Y134.671 E42.63652
G1 X138.599 Y138.102 E42.86749
G1 X138.112 Y138.588 E42.90181
G1 X134.681 Y141.698 E43.13284
G1 X134.151 Y142.134 E43.16708
G1 X130.423 Y144.9 E43.39867
G1 X129.849 Y145.283 E43.4331
G1 X125.871 Y147.666 E43.66445
G1 X125.268 Y147.988 E43.69855
G1 X121.071 Y149.974 E43.9302
G1 X120.437 Y150.237 E43.96445
G1 X116.083 Y151.796 E44.19517
G1 X115.424 Y151.996 E44.22953
G1 X110.924 Y153.123 E44.46097
G1 X110.251 Y153.257 E44.49521
G1 X105.664 Y153.938 E44.72656
G1 X104.982 Y154.005 E44.76075
G1 X100.351 Y154.234 E44.99207
G1 X99.661 Y154.235 E45.0265
G1 X95.029 Y154.007 E45.25787
G1 X94.346 Y153.939 E45.29211
G1 X89.76 Y153.259 E45.52341
G1 X89.088 Y153.126 E45.55759
G1 X84.588 Y152 E45.78901
G1 X83.93 Y151.8 E45.82332
G1 X79.575 Y150.243 E46.05406
G1 X78.938 Y149.979 E46.08847
G1 X74.741 Y147.993 E46.32011
G1 X74.138 Y147.671 E46.35422
G1 X70.159 Y145.288 E46.58561
G1 X69.586 Y144.905 E46.62
G1 X65.858 Y142.14 E46.85156
G1 X65.328 Y141.706 E46.88573
G1 X61.896 Y138.597 E47.11677
G1 X61.41 Y138.11 E47.15109
G1 X58.301 Y134.68 E47.38205
G1 X57.865 Y134.15 E47.41629
G1 X55.1 Y130.423 E47.64781
G1 X54.717 Y129.849 E47.68224
G1 X52.334 Y125.871 E47.91359
G1 X52.012 Y125.268 E47.94769
G1 X50.024 Y121.067 E48.17957
G1 X49.76 Y120.432 E48.21387
G1 X48.203 Y116.082 E48.44438
G1 X48.004 Y115.424 E48.47868
G1 X46.877 Y110.924 E48.71012
G1 X46.743 Y110.251 E48.74435
G1 X46.062 Y105.664 E48.97571
G1 X45.995 Y104.982 E49.00989
G1 X45.766 Y100.352 E49.24117
G1 X45.765 Y99.662 E49.27559
G1 X45.993 Y95.029 E49.50701
G1 X46.061 Y94.346 E49.54126
G1 X46.741 Y89.76 E49.77256
G1 X46.874 Y89.088 E49.80673
G1 X48.001 Y84.584 E50.03836
G1 X48.201 Y83.925 E50.07272
G1 X49.756 Y79.578 E50.30305
G1 X50.019 Y78.943 E50.33734
G1 X52.006 Y74.742 E50.56919
G1 X52.329 Y74.138 E50.60337
G1 X54.712 Y70.159 E50.83476
G1 X55.094 Y69.586 E50.86912
G1 X57.858 Y65.859 E51.10061
G1 X58.293 Y65.329 E51.13482
G1 X61.401 Y61.898 E51.36578
G0 F3600 X61.698 Y62.167
G1 F1800 X62.156 Y61.708 E51.39813
G1 X65.587 Y58.598 E51.62916
G1 X66.087 Y58.188 E51.66142
G1 X69.815 Y55.422 E51.89301
G1 X70.356 Y55.06 E51.92549
G1 X74.334 Y52.677 E52.15683
G1 X74.903 Y52.373 E52.18902
G1 X79.1 Y50.387 E52.42067
G1 X79.698 Y50.139 E52.45297
G1 X84.052 Y48.58 E52.68369
G1 X84.674 Y48.392 E52.71611
G1 X89.174 Y47.265 E52.94755
G1 X89.808 Y47.139 E52.9798
G1 X94.395 Y46.458 E53.21115
G1 X95.038 Y46.394 E53.24339
G1 X99.669 Y46.165 E53.47472
G1 X100.319 Y46.165 E53.50714
G1 X104.951 Y46.393 E53.73852
G1 X105.595 Y46.456 E53.7708
G1 X110.181 Y47.136 E54.0021
G1 X110.815 Y47.262 E54.03435
G1 X115.315 Y48.388 E54.26577
G1 X115.935 Y48.576 E54.2981
G1 X120.29 Y50.133 E54.52884
G1 X120.891 Y50.382 E54.56129
G1 X125.088 Y52.368 E54.79294
G1 X125.656 Y52.672 E54.82508
G1 X129.635 Y55.055 E55.05647
G1 X130.175 Y55.416 E55.08888
G1 X133.902 Y58.18 E55.32037
G1 X134.402 Y58.59 E55.35263
G1 X137.833 Y61.698 E55.58359
G1 X138.292 Y62.156 E55.61594
G1 X141.402 Y65.587 E55.84697
G1 X141.812 Y66.087 E55.87923
G1 X144.577 Y69.813 E56.11072
G1 X144.939 Y70.355 E56.14323
G1 X147.323 Y74.335 E56.37469
G1 X147.627 Y74.903 E56.40683
G1 X149.614 Y79.102 E56.63859
G1 X149.862 Y79.7 E56.67089
G1 X151.419 Y84.048 E56.9013
G1 X151.607 Y84.67 E56.93372
G1 X152.735 Y89.174 E57.16537
G1 X152.861 Y89.807 E57.19757
G1 X153.542 Y94.392 E57.42882
G1 X153.606 Y95.036 E57.46111
G1 X153.835 Y99.668 E57.69248
G1 X153.835 Y100.318 E57.72491
G1 X153.607 Y104.951 E57.95633
G1 X153.544 Y105.595 E57.98862
G1 X152.864 Y110.181 E58.21991
G1 X152.738 Y110.815 E58.25216
G1 X151.612 Y115.315 E58.48359
G1 X151.424 Y115.934 E58.51587
G1 X149.869 Y120.285 E58.74638
G1 X149.62 Y120.887 E58.77889
G1 X147.632 Y125.088 E59.01076
G1 X147.328 Y125.656 E59.0429
G1 X144.945 Y129.635 E59.27429
G1 X144.584 Y130.175 E59.3067
G1 X141.82 Y133.902 E59.53819
G1 X141.41 Y134.402 E59.57045
G1 X138.302 Y137.833 E59.80141
G1 X137.844 Y138.292 E59.83376
G1 X134.413 Y141.402 E60.06479
G1 X133.913 Y141.812 E60.09705
G1 X130.185 Y144.578 E60.32864
G1 X129.644 Y144.94 E60.36112
G1 X125.666 Y147.323 E60.59247
G1 X125.097 Y147.627 E60.62465
G1 X120.9 Y149.613 E60.8563
G1 X120.302 Y149.861 E60.8886
G1 X115.948 Y151.42 E61.11933
G1 X115.326 Y151.608 E61.15174
G1 X110.826 Y152.735 E61.38318
G1 X110.192 Y152.861 E61.41543
G1 X105.605 Y153.542 E61.64679
G1 X104.962 Y153.606 E61.67903
G1 X100.331 Y153.835 E61.91035
G1 X99.681 Y153.835 E61.94278
G1 X95.049 Y153.607 E62.17415
G1 X94.405 Y153.544 E62.20643
G1 X89.819 Y152.864 E62.43773
G1 X89.185 Y152.738 E62.46998
G1 X84.685 Y151.612 E62.70141
G1 X84.065 Y151.424 E62.73373
G1 X79.71 Y149.867 E62.96447
G1 X79.109 Y149.618 E62.99693
G1 X74.912 Y147.632 E63.22857
G1 X74.344 Y147.328 E63.26071
G1 X70.365 Y144.945 E63.49211
G1 X69.824 Y144.584 E63.52455
G1 X66.096 Y141.819 E63.75612
G1 X65.597 Y141.409 E63.78834
G1 X62.165 Y138.3 E64.01937
G1 X61.706 Y137.841 E64.05176
G1 X58.597 Y134.411 E64.28271
G1 X58.186 Y133.911 E64.31501
G1 X55.421 Y130.184 E64.54653
G1 X55.06 Y129.644 E64.57894
G1 X52.677 Y125.666 E64.81028
G1 X52.373 Y125.097 E64.84247
G1 X50.385 Y120.896 E65.07434
G1 X50.137 Y120.297 E65.10669
G1 X48.58 Y115.947 E65.33719
G1 X48.392 Y115.326 E65.36956
G1 X47.265 Y110.826 E65.601
G1 X47.139 Y110.192 E65.63325
G1 X46.458 Y105.605 E65.8646
G1 X46.394 Y104.962 E65.89684
G1 X46.165 Y100.332 E66.12812
G1 X46.165 Y99.682 E66.16054
G1 X46.393 Y95.049 E66.39197
G1 X46.456 Y94.405 E66.42425
G1 X47.136 Y89.819 E66.65555
G1 X47.262 Y89.185 E66.6878
G1 X48.389 Y84.681 E66.91943
G1 X48.578 Y84.06 E66.95181
G1 X50.133 Y79.713 E67.18214
G1 X50.381 Y79.114 E67.21449
G1 X52.368 Y74.913 E67.44634
G1 X52.672 Y74.344 E67.47852
G1 X55.055 Y70.365 E67.70992
G1 X55.416 Y69.825 E67.74232
G1 X58.18 Y66.098 E67.97382
G1 X58.59 Y65.598 E68.00607
G1 X61.698 Y62.167 E68.23704
G0 F3600 X61.994 Y62.436
G1 F1800 X62.425 Y62.004 E68.26748
