;FLAVOR:Repetier
;TIME:1748
;MINX:77.2
;MINY:72.2
;MINZ:0.3
;MAXX:122.8
;MAXY:127.8
;MAXZ:2
;Generated with Cura_SteamEngine master
M190 S60
M104 S190
M109 S190
M82 ;absolute extrusion mode
G21 ;metric values
G90 ;absolute positioning
M82 ;set extruder to absolute mode
M107 ;start with the fan off
G28 X0 Y0 ;move X/Y to min endstops
G28 Z0 ;move Z to min endstops
G1 Z15.0 F9000 ;move the platform down 15mm
G92 E0 ;zero the extruded length
G1 F200 E3 ;extrude 3mm of feed stock
G92 E0 ;zero the extruded length again
G1 F9000
;Put printing message on LCD screen
M117 Printing...
G92 E0
G92 E0
G1 F1500 E-6.5
;LAYER_COUNT:18
;LAYER:0
M107
G0 F3600 X79.485 Y74.602 Z0.3
;TYPE:SKIRT
G1 F1500 E0
G1 F1800 X80.188 Y73.955 E0.04767
G1 X80.824 Y73.488 E0.08703
G1 X81.504 Y73.087 E0.12642
G1 X82.222 Y72.757 E0.16584
G1 X82.969 Y72.502 E0.20522
G1 X83.738 Y72.323 E0.24461
G1 X84.522 Y72.223 E0.28404
G1 X85.117 Y72.2 E0.31375
G1 X114.883 Y72.2 E1.79878
G1 X115.672 Y72.24 E1.83819
G1 X116.452 Y72.359 E1.87756
G1 X117.217 Y72.557 E1.91698
G1 X117.957 Y72.831 E1.95635
G1 X118.666 Y73.179 E1.99575
G1 X119.337 Y73.597 E2.03519
G1 X119.961 Y74.08 E2.07456
G1 X120.534 Y74.623 E2.11395
G1 X121.049 Y75.222 E2.15336
G1 X121.5 Y75.87 E2.19275
G1 X121.884 Y76.561 E2.23218
G1 X122.196 Y77.286 E2.27156
G1 X122.433 Y78.039 E2.31095
G1 X122.592 Y78.813 E2.35037
G1 X122.683 Y79.977 E2.40862
G1 X122.8 Y119.86 E4.3984
G1 X122.762 Y120.649 E4.43781
G1 X122.645 Y121.43 E4.4772
G1 X122.449 Y122.195 E4.5166
G1 X122.178 Y122.936 E4.55597
G1 X121.832 Y123.646 E4.59537
G1 X121.417 Y124.318 E4.63478
G1 X120.935 Y124.944 E4.67419
G1 X120.515 Y125.398 E4.70505
G1 X119.812 Y126.045 E4.75271
G1 X119.176 Y126.512 E4.79208
G1 X118.496 Y126.913 E4.83146
G1 X117.778 Y127.243 E4.87089
G1 X117.031 Y127.498 E4.91027
G1 X116.262 Y127.677 E4.94966
G1 X115.478 Y127.777 E4.98909
G1 X114.883 Y127.8 E5.0188
G1 X85.117 Y127.8 E6.50383
G1 X84.328 Y127.76 E6.54324
G1 X83.548 Y127.641 E6.58261
G1 X82.783 Y127.443 E6.62203
G1 X82.043 Y127.169 E6.6614
G1 X81.334 Y126.821 E6.7008
G1 X80.663 Y126.403 E6.74024
G1 X80.039 Y125.92 E6.77961
G1 X79.602 Y125.515 E6.80934
G1 X78.955 Y124.812 E6.857
G1 X78.488 Y124.176 E6.89637
G1 X78.087 Y123.496 E6.93575
G1 X77.757 Y122.778 E6.97517
G1 X77.502 Y122.031 E7.01455
G1 X77.323 Y121.262 E7.05395
G1 X77.223 Y120.478 E7.09338
G1 X77.2 Y119.883 E7.12308
G1 X77.2 Y80.117 E9.10702
G1 X77.24 Y79.328 E9.14643
G1 X77.359 Y78.548 E9.1858
G1 X77.557 Y77.783 E9.22522
G1 X77.831 Y77.043 E9.26459
G1 X78.179 Y76.334 E9.30399
G1 X78.597 Y75.663 E9.34343
G1 X79.08 Y75.039 E9.3828
G1 X79.485 Y74.602 E9.41252
G0 F3600 X79.884 Y74.767
G1 F1800 X80.456 Y74.253 E9.45089
G1 X81.078 Y73.8 E9.48928
G1 X81.743 Y73.414 E9.52764
G1 X82.445 Y73.099 E9.56603
G1 X83.176 Y72.859 E9.60441
G1 X83.927 Y72.696 E9.64275
G1 X84.692 Y72.612 E9.68115
G1 X114.883 Y72.6 E11.18738
G1 X115.651 Y72.64 E11.22575
G1 X116.411 Y72.759 E11.26413
G1 X117.154 Y72.957 E11.30249
G1 X117.873 Y73.231 E11.34088
G1 X118.559 Y73.578 E11.37923
G1 X119.206 Y73.994 E11.41761
G1 X119.806 Y74.475 E11.45597
G1 X120.353 Y75.016 E11.49436
G1 X120.841 Y75.611 E11.53275
G1 X121.264 Y76.253 E11.57111
G1 X121.619 Y76.936 E11.60951
G1 X121.9 Y77.651 E11.64784
G1 X122.106 Y78.393 E11.68626
G1 X122.234 Y79.151 E11.72461
G1 X122.283 Y79.978 E11.76594
G1 X122.4 Y119.861 E13.75572
G1 X122.362 Y120.63 E13.79413
G1 X122.245 Y121.39 E13.83249
G1 X122.049 Y122.134 E13.87088
G1 X121.778 Y122.853 E13.90921
G1 X121.433 Y123.541 E13.94761
G1 X121.018 Y124.189 E13.986
G1 X120.539 Y124.79 E14.02434
G1 X120.116 Y125.233 E14.0549
G1 X119.544 Y125.747 E14.09327
G1 X118.922 Y126.2 E14.13166
G1 X118.257 Y126.586 E14.17002
G1 X117.555 Y126.901 E14.20841
G1 X116.824 Y127.141 E14.24679
G1 X116.073 Y127.304 E14.28513
G1 X115.308 Y127.388 E14.32353
G1 X85.117 Y127.4 E15.82976
G1 X84.349 Y127.36 E15.86813
G1 X83.589 Y127.241 E15.90651
G1 X82.846 Y127.043 E15.94487
G1 X82.127 Y126.769 E15.98326
G1 X81.441 Y126.422 E16.02161
G1 X80.794 Y126.006 E16.05999
G1 X80.194 Y125.525 E16.09835
G1 X79.767 Y125.116 E16.12785
G1 X79.253 Y124.544 E16.16622
G1 X78.8 Y123.922 E16.20461
G1 X78.414 Y123.257 E16.24297
G1 X78.099 Y122.555 E16.28136
G1 X77.859 Y121.824 E16.31974
G1 X77.696 Y121.073 E16.35808
G1 X77.612 Y120.308 E16.39648
G1 X77.6 Y80.117 E18.40161
G1 X77.64 Y79.349 E18.43998
G1 X77.759 Y78.589 E18.47836
G1 X77.957 Y77.846 E18.51672
G1 X78.231 Y77.127 E18.55511
G1 X78.578 Y76.441 E18.59346
G1 X78.994 Y75.794 E18.63184
G1 X79.475 Y75.194 E18.6702
G1 X79.884 Y74.767 E18.6997
G0 F3600 X80.05 Y75.167
G1 F1800 X80.724 Y74.55 E18.74529
G1 X81.33 Y74.113 E18.78257
G1 X81.98 Y73.742 E18.8199
G1 X82.666 Y73.443 E18.85724
G1 X83.38 Y73.219 E18.89457
G1 X84.113 Y73.072 E18.93187
G1 X85.117 Y73 E18.98209
G1 X114.883 Y73 E20.46712
G1 X115.63 Y73.04 E20.50444
G1 X116.368 Y73.159 E20.54174
G1 X117.09 Y73.357 E20.57909
G1 X117.786 Y73.63 E20.61639
G1 X118.449 Y73.977 E20.65372
G1 X119.072 Y74.392 E20.69107
G1 X119.646 Y74.871 E20.72836
G1 X120.167 Y75.408 E20.76569
G1 X120.626 Y75.998 E20.80299
G1 X121.021 Y76.634 E20.84034
G1 X121.345 Y77.308 E20.87765
G1 X121.595 Y78.013 E20.91497
G1 X121.769 Y78.741 E20.95231
G1 X121.864 Y79.483 E20.98963
G1 X122 Y119.862 E23.00416
G1 X121.962 Y120.61 E23.04152
G1 X121.845 Y121.348 E23.0788
G1 X121.649 Y122.07 E23.11613
G1 X121.378 Y122.768 E23.15348
G1 X121.034 Y123.432 E23.19079
G1 X120.621 Y124.055 E23.22808
G1 X119.95 Y124.833 E23.27934
G1 X119.276 Y125.45 E23.32493
G1 X118.67 Y125.887 E23.3622
G1 X118.02 Y126.258 E23.39954
G1 X117.334 Y126.557 E23.43687
G1 X116.62 Y126.781 E23.47421
G1 X115.887 Y126.928 E23.51151
G1 X114.883 Y127 E23.56172
G1 X85.117 Y127 E25.04676
G1 X84.37 Y126.96 E25.08408
G1 X83.632 Y126.841 E25.12137
G1 X82.91 Y126.643 E25.15872
G1 X82.214 Y126.37 E25.19602
G1 X81.551 Y126.023 E25.23336
G1 X80.928 Y125.608 E25.2707
G1 X80.167 Y124.95 E25.32089
G1 X79.55 Y124.276 E25.36648
G1 X79.113 Y123.67 E25.40375
G1 X78.742 Y123.02 E25.44109
G1 X78.443 Y122.334 E25.47843
G1 X78.219 Y121.62 E25.51576
G1 X78.072 Y120.887 E25.55306
G1 X78 Y119.883 E25.60328
G1 X78 Y80.117 E27.58721
G1 X78.04 Y79.37 E27.62453
G1 X78.159 Y78.632 E27.66183
G1 X78.357 Y77.91 E27.69918
G1 X78.63 Y77.214 E27.73648
G1 X78.977 Y76.551 E27.77381
G1 X79.392 Y75.928 E27.81116
G1 X80.05 Y75.167 E27.86135
G0 F3600 X80.333 Y75.45
G1 F1800 X80.991 Y74.849 E27.90581
G1 X81.582 Y74.426 E27.94207
G1 X82.216 Y74.072 E27.97829
G1 X82.885 Y73.789 E28.01453
G1 X83.581 Y73.581 E28.05078
G1 X84.296 Y73.451 E28.08703
G1 X85.117 Y73.4 E28.12807
G1 X114.883 Y73.4 E29.6131
G1 X115.608 Y73.44 E29.64933
G1 X116.325 Y73.559 E29.68559
G1 X117.024 Y73.757 E29.72183
G1 X117.697 Y74.03 E29.75807
G1 X118.336 Y74.375 E29.7943
G1 X118.933 Y74.789 E29.83054
G1 X119.481 Y75.265 E29.86676
G1 X119.974 Y75.799 E29.90301
G1 X120.404 Y76.384 E29.93924
G1 X120.768 Y77.013 E29.97549
G1 X121.061 Y77.678 E30.01175
G1 X121.279 Y78.371 E30.04799
G1 X121.419 Y79.083 E30.08419
G1 X121.483 Y79.981 E30.12911
G1 X121.6 Y119.864 E32.11889
G1 X121.562 Y120.589 E32.15511
G1 X121.445 Y121.306 E32.19135
G1 X121.249 Y122.005 E32.22757
G1 X120.978 Y122.679 E32.26381
G1 X120.635 Y123.319 E32.30004
G1 X120.223 Y123.918 E32.33631
G1 X119.667 Y124.55 E32.37831
G1 X119.009 Y125.151 E32.42277
G1 X118.418 Y125.574 E32.45903
G1 X117.784 Y125.928 E32.49525
G1 X117.115 Y126.211 E32.53149
G1 X116.419 Y126.419 E32.56773
G1 X115.704 Y126.549 E32.60399
G1 X114.883 Y126.6 E32.64503
G1 X85.117 Y126.6 E34.13006
G1 X84.392 Y126.56 E34.16629
G1 X83.675 Y126.441 E34.20255
G1 X82.976 Y126.243 E34.23879
G1 X82.303 Y125.97 E34.27502
G1 X81.664 Y125.625 E34.31125
G1 X81.067 Y125.211 E34.3475
G1 X80.45 Y124.667 E34.38854
G1 X79.849 Y124.009 E34.433
G1 X79.426 Y123.418 E34.46926
G1 X79.072 Y122.784 E34.50548
G1 X78.789 Y122.115 E34.54172
G1 X78.581 Y121.419 E34.57797
G1 X78.451 Y120.704 E34.61422
G1 X78.4 Y119.883 E34.65526
G1 X78.4 Y80.117 E36.63919
G1 X78.44 Y79.392 E36.67542
G1 X78.559 Y78.675 E36.71168
G1 X78.757 Y77.976 E36.74793
G1 X79.03 Y77.303 E36.78416
G1 X79.375 Y76.664 E36.82039
G1 X79.789 Y76.067 E36.85663
G1 X80.333 Y75.45 E36.89767
G0 F3600 X80.616 Y75.733
G1 F1800 X81.258 Y75.147 E36.94104
G1 X81.833 Y74.741 E36.97616
G1 X82.451 Y74.403 E37.0113
G1 X83.102 Y74.136 E37.0464
G1 X83.78 Y73.946 E37.08153
G1 X84.475 Y73.833 E37.11666
G1 X85.117 Y73.8 E37.14873
G1 X114.883 Y73.8 E38.63376
G1 X115.586 Y73.84 E38.66889
G1 X116.28 Y73.959 E38.70402
G1 X116.955 Y74.157 E38.73912
G1 X117.604 Y74.429 E38.77422
G1 X118.218 Y74.774 E38.80936
G1 X118.789 Y75.185 E38.84446
G1 X119.31 Y75.659 E38.8796
G1 X119.774 Y76.189 E38.91474
G1 X120.174 Y76.768 E38.94985
G1 X120.506 Y77.389 E38.98499
G1 X120.766 Y78.043 E39.0201
G1 X120.95 Y78.723 E39.05524
G1 X121.056 Y79.419 E39.09037
G1 X121.083 Y79.982 E39.11849
G1 X121.2 Y119.865 E41.10827
G1 X121.162 Y120.568 E41.14339
G1 X121.045 Y121.262 E41.1785
G1 X120.849 Y121.938 E41.21362
G1 X120.579 Y122.588 E41.24873
G1 X120.236 Y123.203 E41.28386
G1 X119.826 Y123.775 E41.31898
G1 X119.384 Y124.267 E41.35197
G1 X118.742 Y124.853 E41.39534
G1 X118.167 Y125.259 E41.43046
G1 X117.549 Y125.597 E41.4656
G1 X116.898 Y125.864 E41.5007
G1 X116.22 Y126.054 E41.53583
G1 X115.525 Y126.167 E41.57096
G1 X114.883 Y126.2 E41.60303
G1 X85.117 Y126.2 E43.08806
G1 X84.414 Y126.16 E43.12319
G1 X83.72 Y126.041 E43.15832
G1 X83.045 Y125.843 E43.19342
G1 X82.396 Y125.571 E43.22852
G1 X81.782 Y125.226 E43.26366
G1 X81.211 Y124.815 E43.29876
G1 X80.733 Y124.384 E43.33087
G1 X80.147 Y123.742 E43.37424
G1 X79.741 Y123.167 E43.40935
G1 X79.403 Y122.549 E43.4445
G1 X79.136 Y121.898 E43.4796
G1 X78.946 Y121.22 E43.51473
G1 X78.833 Y120.525 E43.54986
G1 X78.8 Y119.883 E43.58193
G1 X78.8 Y80.117 E45.56586
G1 X78.84 Y79.414 E45.60099
G1 X78.959 Y78.72 E45.63612
G1 X79.157 Y78.045 E45.67122
G1 X79.429 Y77.396 E45.70632
G1 X79.774 Y76.782 E45.74146
G1 X80.185 Y76.211 E45.77656
G1 X80.616 Y75.733 E45.80867
G0 F3600 X81.016 Y75.899
G1 F1800 X81.525 Y75.446 E45.84267
G1 X82.083 Y75.057 E45.8766
G1 X82.683 Y74.735 E45.91057
G1 X83.317 Y74.486 E45.94456
G1 X83.976 Y74.313 E45.97855
G1 X84.65 Y74.219 E46.0125
G1 X114.883 Y74.2 E47.52083
G1 X115.563 Y74.24 E47.55481
G1 X116.233 Y74.359 E47.58876
G1 X116.885 Y74.556 E47.62274
G1 X117.509 Y74.828 E47.65671
G1 X118.097 Y75.172 E47.69069
G1 X118.641 Y75.582 E47.72468
G1 X119.132 Y76.053 E47.75862
G1 X119.566 Y76.578 E47.79261
G1 X119.935 Y77.15 E47.82657
G1 X120.234 Y77.762 E47.86055
G1 X120.459 Y78.404 E47.89449
G1 X120.608 Y79.069 E47.92849
G1 X120.683 Y79.983 E47.97424
G1 X120.8 Y119.866 E49.96402
G1 X120.762 Y120.546 E49.998
G1 X120.645 Y121.216 E50.03193
G1 X120.449 Y121.869 E50.06594
G1 X120.179 Y122.494 E50.09991
G1 X119.838 Y123.083 E50.13386
G1 X119.429 Y123.628 E50.16786
G1 X118.984 Y124.101 E50.20026
G1 X118.475 Y124.554 E50.23425
G1 X117.917 Y124.943 E50.26819
G1 X117.317 Y125.265 E50.30216
G1 X116.683 Y125.514 E50.33615
G1 X116.024 Y125.687 E50.37014
G1 X115.35 Y125.781 E50.40409
G1 X85.117 Y125.8 E51.91242
G1 X84.437 Y125.76 E51.9464
G1 X83.767 Y125.641 E51.98035
G1 X83.115 Y125.444 E52.01433
G1 X82.491 Y125.172 E52.04829
G1 X81.903 Y124.828 E52.08228
G1 X81.359 Y124.418 E52.11627
G1 X80.899 Y123.984 E52.14782
G1 X80.446 Y123.475 E52.18181
G1 X80.057 Y122.917 E52.21575
G1 X79.735 Y122.317 E52.24972
G1 X79.486 Y121.683 E52.2837
G1 X79.313 Y121.024 E52.31769
G1 X79.219 Y120.35 E52.35165
G1 X79.2 Y80.117 E54.35888
G1 X79.24 Y79.437 E54.39286
G1 X79.359 Y78.767 E54.42681
G1 X79.556 Y78.115 E54.46079
G1 X79.828 Y77.491 E54.49475
G1 X80.172 Y76.903 E54.52874
G1 X80.582 Y76.359 E54.56273
G1 X81.016 Y75.899 E54.59428
G0 F3600 X81.182 Y76.299
G1 F1800 X81.791 Y75.746 E54.63532
G1 X82.332 Y75.374 E54.66807
G1 X82.914 Y75.07 E54.70083
G1 X83.529 Y74.839 E54.73361
G1 X84.168 Y74.684 E54.76641
G1 X85.117 Y74.6 E54.81394
G1 X114.883 Y74.6 E56.29897
G1 X115.539 Y74.64 E56.33176
G1 X116.185 Y74.759 E56.36453
G1 X116.812 Y74.956 E56.39732
G1 X117.41 Y75.228 E56.4301
G1 X117.971 Y75.57 E56.46288
G1 X118.486 Y75.978 E56.49566
G1 X118.948 Y76.445 E56.52843
G1 X119.349 Y76.965 E56.56119
G1 X119.685 Y77.529 E56.59394
G1 X119.949 Y78.131 E56.62674
G1 X120.139 Y78.76 E56.65952
G1 X120.25 Y79.407 E56.69227
G1 X120.283 Y79.984 E56.72111
G1 X120.4 Y119.867 E58.71088
G1 X120.362 Y120.523 E58.74367
G1 X120.245 Y121.169 E58.77642
G1 X120.05 Y121.797 E58.80923
G1 X119.78 Y122.396 E58.84201
G1 X119.439 Y122.958 E58.8748
G1 X118.818 Y123.701 E58.92311
G1 X118.209 Y124.254 E58.96415
G1 X117.668 Y124.626 E58.99691
G1 X117.086 Y124.93 E59.02967
G1 X116.471 Y125.161 E59.06244
G1 X115.832 Y125.316 E59.09525
G1 X114.883 Y125.4 E59.14278
G1 X85.117 Y125.4 E60.62781
G1 X84.461 Y125.36 E60.6606
G1 X83.815 Y125.241 E60.69337
G1 X83.188 Y125.044 E60.72616
G1 X82.59 Y124.772 E60.75894
G1 X82.029 Y124.43 E60.79172
G1 X81.299 Y123.818 E60.83924
G1 X80.746 Y123.209 E60.88028
G1 X80.374 Y122.668 E60.91304
G1 X80.07 Y122.086 E60.9458
G1 X79.839 Y121.471 E60.97857
G1 X79.684 Y120.832 E61.01137
G1 X79.6 Y119.883 E61.05891
G1 X79.6 Y80.117 E63.04284
G1 X79.64 Y79.461 E63.07563
G1 X79.759 Y78.815 E63.1084
G1 X79.956 Y78.188 E63.14119
G1 X80.228 Y77.59 E63.17396
G1 X80.57 Y77.029 E63.20674
G1 X81.182 Y76.299 E63.25427
G0 F3600 X81.464 Y76.581
G1 F1800 X82.056 Y76.047 E63.29404
G1 X82.579 Y75.692 E63.32558
G1 X83.143 Y75.406 E63.35713
G1 X83.738 Y75.194 E63.38864
G1 X84.356 Y75.058 E63.42021
G1 X85.117 Y75 E63.45829
G1 X114.883 Y75 E64.94332
G1 X115.514 Y75.04 E64.97486
G1 X116.135 Y75.159 E65.00641
G1 X116.735 Y75.356 E65.03792
G1 X117.307 Y75.627 E65.06949
G1 X117.839 Y75.967 E65.10099
G1 X118.324 Y76.373 E65.13255
G1 X118.754 Y76.836 E65.16407
G1 X119.123 Y77.35 E65.19564
G1 X119.423 Y77.906 E65.22716
G1 X119.651 Y78.495 E65.25867
G1 X119.803 Y79.109 E65.29023
G1 X119.883 Y79.985 E65.33411
G1 X120 Y119.868 E67.32389
G1 X119.962 Y120.499 E67.35543
G1 X119.844 Y121.12 E67.38697
G1 X119.65 Y121.722 E67.41852
G1 X119.38 Y122.294 E67.45008
G1 X119.041 Y122.827 E67.48159
G1 X118.536 Y123.419 E67.52041
G1 X117.944 Y123.953 E67.56019
G1 X117.421 Y124.308 E67.59172
G1 X116.857 Y124.594 E67.62327
G1 X116.262 Y124.806 E67.65479
G1 X115.644 Y124.942 E67.68636
G1 X114.883 Y125 E67.72443
G1 X85.117 Y125 E69.20946
G1 X84.486 Y124.96 E69.24101
G1 X83.865 Y124.841 E69.27255
G1 X83.265 Y124.644 E69.30406
G1 X82.693 Y124.373 E69.33564
G1 X82.161 Y124.033 E69.36714
G1 X81.581 Y123.536 E69.40524
G1 X81.047 Y122.944 E69.44502
G1 X80.692 Y122.421 E69.47655
G1 X80.406 Y121.857 E69.5081
G1 X80.194 Y121.262 E69.53962
G1 X80.058 Y120.644 E69.57119
G1 X80 Y119.883 E69.60926
G1 X80 Y80.117 E71.5932
G1 X80.04 Y79.486 E71.62474
G1 X80.159 Y78.865 E71.65629
G1 X80.356 Y78.265 E71.68779
G1 X80.627 Y77.693 E71.71937
G1 X80.967 Y77.161 E71.75087
G1 X81.464 Y76.581 E71.78898
G0 F3600 X81.747 Y76.864
G1 F1800 X82.32 Y76.348 E71.82745
G1 X82.825 Y76.012 E71.85771
G1 X83.369 Y75.745 E71.88794
G1 X83.944 Y75.552 E71.9182
G1 X84.539 Y75.436 E71.94844
G1 X85.117 Y75.4 E71.97734
G1 X114.883 Y75.4 E73.46237
G1 X115.488 Y75.44 E73.49262
G1 X116.082 Y75.559 E73.52284
G1 X116.656 Y75.755 E73.5531
G1 X117.199 Y76.026 E73.58338
G1 X117.702 Y76.365 E73.61364
G1 X118.155 Y76.767 E73.64386
G1 X118.552 Y77.225 E73.6741
G1 X118.885 Y77.732 E73.70436
G1 X119.149 Y78.278 E73.73461
G1 X119.338 Y78.854 E73.76486
G1 X119.45 Y79.45 E73.79511
G1 X119.483 Y79.987 E73.82196
G1 X119.6 Y119.87 E75.81174
G1 X119.562 Y120.475 E75.84198
G1 X119.444 Y121.069 E75.87219
G1 X119.25 Y121.644 E75.90247
G1 X118.981 Y122.187 E75.9327
G1 X118.644 Y122.691 E75.96295
G1 X118.253 Y123.136 E75.9925
G1 X117.68 Y123.652 E76.03097
G1 X117.175 Y123.988 E76.06123
G1 X116.631 Y124.255 E76.09147
G1 X116.056 Y124.448 E76.12173
G1 X115.461 Y124.564 E76.15197
G1 X114.883 Y124.6 E76.18086
G1 X85.117 Y124.6 E77.66589
G1 X84.512 Y124.56 E77.69614
G1 X83.918 Y124.441 E77.72637
G1 X83.344 Y124.245 E77.75663
G1 X82.801 Y123.974 E77.7869
G1 X82.298 Y123.635 E77.81717
G1 X81.864 Y123.253 E77.84601
G1 X81.348 Y122.68 E77.88448
G1 X81.012 Y122.175 E77.91474
G1 X80.745 Y121.631 E77.94498
