;FLAVOR:Repetier
;TIME:7831
;MINX:46.573
;MINY:46.573
;MINZ:0.3
;MAXX:153.427
;MAXY:153.427
;MAXZ:6.9
;Generated with Cura_SteamEngine master
M190 S60
M104 S190
M109 S190
M82 ;absolute extrusion mode
G21 ;metric values
G90 ;absolute positioning
M82 ;set extruder to absolute mode
M107 ;start with the fan off
G28 X0 Y0 ;move X/Y to min endstops
G28 Z0 ;move Z to min endstops
G1 Z15.0 F9000 ;move the platform down 15mm
G92 E0 ;zero the extruded length
G1 F200 E3 ;extrude 3mm of feed stock
G92 E0 ;zero the extruded length again
G1 F9000
;Put printing message on LCD screen
M117 Printing...
G92 E0
G92 E0
G1 F1500 E-6.5
;LAYER_COUNT:34
;LAYER:0
M107
G0 F3600 X62.486 Y61.955 Z0.3
;TYPE:SKIRT
G1 F1500 E0
G1 F1800 X65.8 Y58.951 E0.22315
G1 X66.392 Y58.465 E0.26137
G1 X69.994 Y55.793 E0.48512
G1 X70.632 Y55.367 E0.52339
G1 X74.474 Y53.065 E0.74684
G1 X75.147 Y52.705 E0.78492
G1 X79.201 Y50.787 E1.00867
G1 X79.908 Y50.495 E1.04683
G1 X84.114 Y48.989 E1.26971
G1 X84.848 Y48.766 E1.30799
G1 X89.195 Y47.677 E1.53156
G1 X89.944 Y47.528 E1.56966
G1 X94.374 Y46.87 E1.7931
G1 X95.135 Y46.794 E1.83125
G1 X99.61 Y46.573 E2.05478
G1 X100.378 Y46.573 E2.0931
G1 X104.853 Y46.793 E2.31663
G1 X105.614 Y46.868 E2.35478
G1 X110.044 Y47.525 E2.57821
G1 X110.794 Y47.674 E2.61636
G1 X115.141 Y48.762 E2.83992
G1 X115.873 Y48.984 E2.87808
G1 X120.08 Y50.488 E3.10098
G1 X120.79 Y50.782 E3.13932
G1 X124.844 Y52.7 E3.36307
G1 X125.516 Y53.06 E3.4011
G1 X129.359 Y55.362 E3.6246
G1 X129.997 Y55.787 E3.66284
G1 X133.598 Y58.457 E3.88649
G1 X134.189 Y58.942 E3.92464
G1 X137.503 Y61.944 E4.14772
G1 X138.045 Y62.486 E4.18596
G1 X141.049 Y65.8 E4.40911
G1 X141.534 Y66.391 E4.44726
G1 X144.205 Y69.991 E4.6709
G1 X144.632 Y70.63 E4.70924
G1 X146.935 Y74.474 E4.9328
G1 X147.295 Y75.147 E4.97088
G1 X149.214 Y79.203 E5.19474
G1 X149.506 Y79.909 E5.23286
G1 X151.01 Y84.109 E5.45543
G1 X151.233 Y84.844 E5.49375
G1 X152.323 Y89.195 E5.71753
G1 X152.472 Y89.944 E5.75563
G1 X153.13 Y94.372 E5.97897
G1 X153.206 Y95.133 E6.01712
G1 X153.427 Y99.609 E6.2407
G1 X153.427 Y100.377 E6.27902
G1 X153.207 Y104.853 E6.5026
G1 X153.132 Y105.614 E6.54075
G1 X152.475 Y110.044 E6.76418
G1 X152.326 Y110.794 E6.80233
G1 X151.238 Y115.141 E7.02589
G1 X151.016 Y115.872 E7.064
G1 X149.514 Y120.075 E7.28668
G1 X149.22 Y120.786 E7.32506
G1 X147.3 Y124.844 E7.54904
G1 X146.94 Y125.516 E7.58707
G1 X144.638 Y129.359 E7.81056
G1 X144.213 Y129.997 E7.84881
G1 X141.543 Y133.598 E8.07246
G1 X141.058 Y134.189 E8.1106
G1 X138.056 Y137.503 E8.33369
G1 X137.514 Y138.045 E8.37193
G1 X134.2 Y141.049 E8.59508
G1 X133.608 Y141.535 E8.63329
G1 X130.006 Y144.207 E8.85705
G1 X129.368 Y144.633 E8.89532
G1 X125.526 Y146.935 E9.11877
G1 X124.853 Y147.295 E9.15685
G1 X120.799 Y149.213 E9.3806
G1 X120.092 Y149.505 E9.41876
G1 X115.886 Y151.011 E9.64164
G1 X115.152 Y151.234 E9.67992
G1 X110.805 Y152.323 E9.90349
G1 X110.056 Y152.472 E9.94159
G1 X105.626 Y153.13 E10.16503
G1 X104.865 Y153.206 E10.20318
G1 X100.39 Y153.427 E10.42671
G1 X99.622 Y153.427 E10.46503
G1 X95.147 Y153.207 E10.68856
G1 X94.386 Y153.132 E10.72671
G1 X89.956 Y152.475 E10.95014
G1 X89.206 Y152.326 E10.98829
G1 X84.859 Y151.238 E11.21185
G1 X84.127 Y151.016 E11.25001
G1 X79.92 Y149.512 E11.47291
G1 X79.21 Y149.218 E11.51125
G1 X75.156 Y147.3 E11.735
G1 X74.484 Y146.94 E11.77303
G1 X70.641 Y144.638 E11.99653
G1 X70.003 Y144.212 E12.0348
G1 X66.401 Y141.541 E12.25852
G1 X65.81 Y141.057 E12.29663
G1 X62.495 Y138.054 E12.51979
G1 X61.953 Y137.511 E12.55806
G1 X58.95 Y134.198 E12.78115
G1 X58.464 Y133.607 E12.81932
G1 X55.793 Y130.006 E13.043
G1 X55.367 Y129.368 E13.08127
G1 X53.065 Y125.526 E13.30472
G1 X52.705 Y124.853 E13.3428
G1 X50.785 Y120.795 E13.56677
G1 X50.492 Y120.088 E13.60496
G1 X48.988 Y115.886 E13.82762
G1 X48.766 Y115.152 E13.86588
G1 X47.677 Y110.805 E14.08945
G1 X47.528 Y110.056 E14.12755
G1 X46.87 Y105.626 E14.35099
G1 X46.794 Y104.865 E14.38914
G1 X46.573 Y100.391 E14.61263
G1 X46.573 Y99.623 E14.65094
G1 X46.793 Y95.147 E14.87452
G1 X46.868 Y94.386 E14.91267
G1 X47.525 Y89.956 E15.1361
G1 X47.674 Y89.206 E15.17425
G1 X48.763 Y84.855 E15.39802
G1 X48.985 Y84.123 E15.43618
G1 X50.486 Y79.924 E15.65865
G1 X50.78 Y79.214 E15.69699
G1 X52.7 Y75.156 E15.92096
G1 X53.06 Y74.484 E15.959
G1 X55.362 Y70.641 E16.18249
G1 X55.787 Y70.003 E16.22074
G1 X58.457 Y66.402 E16.44439
G1 X58.942 Y65.811 E16.48253
G1 X61.944 Y62.497 E16.70561
G1 X62.486 Y61.955 E16.74386
G0 F3600 X62.755 Y62.251
G1 F1800 X66.069 Y59.247 E16.96701
G1 X66.63 Y58.787 E17.0032
G1 X70.232 Y56.115 E17.22695
G1 X70.838 Y55.71 E17.26332
G1 X74.68 Y53.408 E17.48677
G1 X75.318 Y53.067 E17.52286
G1 X79.372 Y51.149 E17.74661
G1 X80.042 Y50.871 E17.7828
G1 X84.248 Y49.365 E18.00568
G1 X84.945 Y49.154 E18.04201
G1 X89.292 Y48.065 E18.26559
G1 X90.003 Y47.923 E18.30176
G1 X94.433 Y47.265 E18.5252
G1 X95.155 Y47.194 E18.56139
G1 X99.63 Y46.973 E18.78492
G1 X100.358 Y46.973 E18.82124
G1 X104.833 Y47.193 E19.04477
G1 X105.556 Y47.264 E19.08102
G1 X109.986 Y47.921 E19.30445
G1 X110.697 Y48.062 E19.34061
G1 X115.044 Y49.15 E19.56417
G1 X115.738 Y49.361 E19.60036
G1 X119.945 Y50.865 E19.82326
G1 X120.619 Y51.144 E19.85965
G1 X124.673 Y53.062 E20.0834
G1 X125.311 Y53.403 E20.11949
G1 X129.154 Y55.705 E20.34299
G1 X129.758 Y56.109 E20.37924
G1 X133.359 Y58.779 E20.60289
G1 X133.92 Y59.239 E20.63908
G1 X137.234 Y62.241 E20.86217
G1 X137.749 Y62.755 E20.89847
G1 X140.753 Y66.069 E21.12162
G1 X141.213 Y66.63 E21.15782
G1 X143.884 Y70.23 E21.38146
G1 X144.289 Y70.836 E21.41782
G1 X146.592 Y74.68 E21.64138
G1 X146.933 Y75.318 E21.67748
G1 X148.852 Y79.374 E21.90134
G1 X149.13 Y80.044 E21.93753
G1 X150.634 Y84.244 E22.16009
G1 X150.845 Y84.941 E22.19643
G1 X151.935 Y89.292 E22.42021
G1 X152.077 Y90.002 E22.45633
G1 X152.735 Y94.43 E22.67967
G1 X152.806 Y95.153 E22.71591
G1 X153.027 Y99.629 E22.93949
G1 X153.027 Y100.357 E22.97581
G1 X152.807 Y104.833 E23.19939
G1 X152.736 Y105.556 E23.23564
G1 X152.079 Y109.986 E23.45907
G1 X151.938 Y110.697 E23.49523
G1 X150.85 Y115.044 E23.71879
G1 X150.639 Y115.737 E23.75493
G1 X149.137 Y119.94 E23.97761
G1 X148.858 Y120.615 E24.01405
G1 X146.938 Y124.673 E24.23802
G1 X146.597 Y125.311 E24.27411
G1 X144.295 Y129.154 E24.49761
G1 X143.891 Y129.758 E24.53386
G1 X141.221 Y133.359 E24.75751
G1 X140.761 Y133.92 E24.7937
G1 X137.759 Y137.234 E25.01679
G1 X137.245 Y137.749 E25.05309
G1 X133.931 Y140.753 E25.27624
G1 X133.37 Y141.213 E25.31244
G1 X129.768 Y143.885 E25.53619
G1 X129.162 Y144.29 E25.57255
G1 X125.32 Y146.592 E25.796
G1 X124.682 Y146.933 E25.83209
G1 X120.628 Y148.851 E26.05584
G1 X119.958 Y149.129 E26.09203
G1 X115.752 Y150.635 E26.31492
G1 X115.055 Y150.846 E26.35125
G1 X110.708 Y151.935 E26.57482
G1 X109.997 Y152.077 E26.611
G1 X105.567 Y152.735 E26.83443
G1 X104.845 Y152.806 E26.87063
G1 X100.37 Y153.027 E27.09416
G1 X99.642 Y153.027 E27.13048
G1 X95.167 Y152.807 E27.35401
G1 X94.444 Y152.736 E27.39025
G1 X90.014 Y152.079 E27.61368
G1 X89.303 Y151.938 E27.64985
G1 X84.956 Y150.85 E27.87341
G1 X84.262 Y150.639 E27.9096
G1 X80.055 Y149.135 E28.13249
G1 X79.381 Y148.856 E28.16889
G1 X75.327 Y146.938 E28.39264
G1 X74.689 Y146.597 E28.42873
G1 X70.846 Y144.295 E28.65222
G1 X70.241 Y143.891 E28.68852
G1 X66.639 Y141.22 E28.91224
G1 X66.079 Y140.76 E28.94839
G1 X62.764 Y137.757 E29.17155
G1 X62.249 Y137.243 E29.20785
G1 X59.246 Y133.93 E29.43093
G1 X58.786 Y133.369 E29.46713
G1 X56.115 Y129.768 E29.69081
G1 X55.71 Y129.162 E29.72717
G1 X53.408 Y125.32 E29.95062
G1 X53.067 Y124.682 E29.98671
G1 X51.147 Y120.624 E30.21068
G1 X50.869 Y119.953 E30.24692
G1 X49.365 Y115.751 E30.46958
G1 X49.154 Y115.055 E30.50587
G1 X48.065 Y110.708 E30.72944
G1 X47.923 Y109.997 E30.76561
G1 X47.265 Y105.567 E30.98905
G1 X47.194 Y104.845 E31.02525
G1 X46.973 Y100.371 E31.24873
G1 X46.973 Y99.643 E31.28505
G1 X47.193 Y95.167 E31.50863
G1 X47.264 Y94.444 E31.54487
G1 X47.921 Y90.014 E31.7683
G1 X48.062 Y89.303 E31.80446
G1 X49.151 Y84.952 E32.02823
G1 X49.362 Y84.258 E32.06442
G1 X50.863 Y80.059 E32.28689
G1 X51.142 Y79.385 E32.32328
G1 X53.062 Y75.327 E32.54726
G1 X53.403 Y74.689 E32.58335
G1 X55.705 Y70.846 E32.80684
G1 X56.109 Y70.242 E32.84309
G1 X58.779 Y66.641 E33.06675
G1 X59.239 Y66.08 E33.10294
G1 X62.241 Y62.766 E33.32603
G1 X62.755 Y62.251 E33.36233
G0 F3600 X63.024 Y62.548
G1 F1800 X66.338 Y59.544 E33.58548
G1 X66.869 Y59.108 E33.61976
G1 X70.471 Y56.436 E33.84351
G1 X71.043 Y56.053 E33.87785
G1 X74.885 Y53.751 E34.1013
G1 X75.489 Y53.428 E34.13547
G1 X79.543 Y51.51 E34.35922
G1 X80.177 Y51.248 E34.39345
G1 X84.383 Y49.742 E34.61633
G1 X85.042 Y49.542 E34.65069
G1 X89.389 Y48.453 E34.87426
G1 X90.062 Y48.319 E34.9085
G1 X94.492 Y47.661 E35.13194
G1 X95.175 Y47.594 E35.16618
G1 X99.65 Y47.373 E35.38971
G1 X100.339 Y47.372 E35.42408
G1 X104.814 Y47.592 E35.64761
G1 X105.497 Y47.66 E35.68185
G1 X109.927 Y48.317 E35.90528
G1 X110.6 Y48.45 E35.93951
G1 X114.947 Y49.538 E36.16307
G1 X115.603 Y49.738 E36.19729
G1 X119.81 Y51.242 E36.42018
G1 X120.448 Y51.505 E36.45461
G1 X124.502 Y53.423 E36.67836
G1 X125.105 Y53.746 E36.71249
G1 X128.948 Y56.048 E36.93598
G1 X129.52 Y56.43 E36.9703
G1 X133.121 Y59.1 E37.19395
G1 X133.652 Y59.535 E37.2282
G1 X136.966 Y62.537 E37.45128
G1 X137.452 Y63.024 E37.48561
G1 X140.456 Y66.338 E37.70876
G1 X140.892 Y66.868 E37.743
G1 X143.563 Y70.468 E37.96664
G1 X143.946 Y71.041 E38.00103
G1 X146.249 Y74.885 E38.22459
G1 X146.572 Y75.489 E38.25876
G1 X148.491 Y79.545 E38.48262
G1 X148.753 Y80.179 E38.51684
G1 X150.257 Y84.379 E38.73941
G1 X150.457 Y85.038 E38.77377
G1 X151.547 Y89.389 E38.99755
G1 X151.681 Y90.061 E39.03174
G1 X152.339 Y94.489 E39.25508
G1 X152.406 Y95.173 E39.28937
G1 X152.627 Y99.649 E39.51295
G1 X152.628 Y100.338 E39.54732
G1 X152.408 Y104.814 E39.7709
G1 X152.34 Y105.497 E39.80514
G1 X151.683 Y109.927 E40.02857
G1 X151.55 Y110.6 E40.0628
G1 X150.462 Y114.947 E40.28636
G1 X150.263 Y115.603 E40.32056
G1 X148.761 Y119.806 E40.54324
G1 X148.496 Y120.444 E40.5777
G1 X146.576 Y124.502 E40.80168
G1 X146.254 Y125.105 E40.83578
G1 X143.952 Y128.948 E41.05927
G1 X143.57 Y129.52 E41.09359
G1 X140.9 Y133.121 E41.31724
G1 X140.465 Y133.652 E41.35149
G1 X137.463 Y136.966 E41.57457
G1 X136.976 Y137.452 E41.6089
G1 X133.662 Y140.456 E41.83205
G1 X133.131 Y140.892 E41.86633
G1 X129.529 Y143.564 E42.09008
G1 X128.957 Y143.947 E42.12442
G1 X125.115 Y146.249 E42.34787
G1 X124.511 Y146.572 E42.38205
G1 X120.457 Y148.49 E42.6058
G1 X119.823 Y148.752 E42.64002
G1 X115.617 Y150.258 E42.8629
G1 X114.958 Y150.458 E42.89726
G1 X110.611 Y151.547 E43.12084
G1 X109.938 Y151.681 E43.15507
G1 X105.508 Y152.339 E43.37851
G1 X104.825 Y152.406 E43.41275
G1 X100.35 Y152.627 E43.63628
G1 X99.661 Y152.628 E43.67065
G1 X95.186 Y152.408 E43.89418
G1 X94.503 Y152.34 E43.92843
G1 X90.073 Y151.683 E44.15186
G1 X89.4 Y151.55 E44.18608
G1 X85.053 Y150.462 E44.40964
G1 X84.397 Y150.262 E44.44386
G1 X80.19 Y148.758 E44.66676
G1 X79.552 Y148.495 E44.70119
G1 X75.498 Y146.577 E44.92493
G1 X74.895 Y146.254 E44.95906
G1 X71.052 Y143.952 E45.18256
G1 X70.48 Y143.57 E45.21687
G1 X66.878 Y140.899 E45.44059
G1 X66.347 Y140.464 E45.47484
G1 X63.032 Y137.461 E45.698
G1 X62.546 Y136.974 E45.73232
G1 X59.543 Y133.661 E45.9554
G1 X59.107 Y133.13 E45.98968
G1 X56.436 Y129.529 E46.21336
G1 X56.053 Y128.957 E46.24771
G1 X53.751 Y125.115 E46.47116
G1 X53.429 Y124.511 E46.5053
G1 X51.509 Y120.453 E46.72928
G1 X51.245 Y119.818 E46.76359
G1 X49.741 Y115.616 E46.98625
G1 X49.542 Y114.958 E47.02054
G1 X48.453 Y110.611 E47.24412
G1 X48.319 Y109.938 E47.27835
G1 X47.661 Y105.508 E47.50179
G1 X47.594 Y104.825 E47.53603
G1 X47.373 Y100.351 E47.75951
G1 X47.372 Y99.662 E47.79389
G1 X47.592 Y95.186 E48.01746
G1 X47.66 Y94.503 E48.05171
G1 X48.317 Y90.073 E48.27514
G1 X48.45 Y89.4 E48.30936
G1 X49.539 Y85.049 E48.53313
G1 X49.738 Y84.393 E48.56733
G1 X51.239 Y80.194 E48.7898
G1 X51.504 Y79.556 E48.82427
G1 X53.424 Y75.498 E49.04824
G1 X53.746 Y74.895 E49.08235
G1 X56.048 Y71.052 E49.30584
G1 X56.43 Y70.48 E49.34016
G1 X59.1 Y66.879 E49.56381
G1 X59.535 Y66.348 E49.59805
G1 X62.537 Y63.034 E49.82114
G1 X63.024 Y62.548 E49.85546
G0 F3600 X63.292 Y62.844
G1 F1800 X66.606 Y59.84 E50.07862
G1 X67.107 Y59.429 E50.11095
G1 X70.709 Y56.757 E50.3347
G1 X71.249 Y56.396 E50.3671
G1 X75.091 Y54.094 E50.59056
G1 X75.66 Y53.79 E50.62274
G1 X79.714 Y51.872 E50.84649
G1 X80.312 Y51.624 E50.87879
G1 X84.518 Y50.118 E51.10167
G1 X85.139 Y49.93 E51.13404
G1 X89.486 Y48.841 E51.35762
G1 X90.12 Y48.715 E51.38987
G1 X94.55 Y48.057 E51.6133
G1 X95.194 Y47.993 E51.64559
G1 X99.669 Y47.772 E51.86912
G1 X100.319 Y47.772 E51.90155
G1 X104.794 Y47.992 E52.12508
G1 X105.438 Y48.055 E52.15736
G1 X109.868 Y48.712 E52.38079
G1 X110.502 Y48.838 E52.41304
G1 X114.849 Y49.926 E52.6366
G1 X115.469 Y50.114 E52.66893
G1 X119.676 Y51.618 E52.89182
G1 X120.277 Y51.867 E52.92428
G1 X124.331 Y53.785 E53.14803
G1 X124.9 Y54.089 E53.18021
G1 X128.743 Y56.391 E53.40371
G1 X129.282 Y56.751 E53.43604
G1 X132.883 Y59.421 E53.6597
G1 X133.383 Y59.832 E53.69199
G1 X136.697 Y62.834 E53.91507
G1 X137.156 Y63.292 E53.94742
G1 X140.16 Y66.606 E54.17057
G1 X140.57 Y67.106 E54.20283
G1 X143.241 Y70.706 E54.42647
G1 X143.603 Y71.247 E54.45895
G1 X145.906 Y75.091 E54.68251
G1 X146.21 Y75.66 E54.7147
G1 X148.129 Y79.716 E54.93856
G1 X148.377 Y80.314 E54.97086
G1 X149.881 Y84.514 E55.19342
G1 X150.069 Y85.135 E55.2258
G1 X151.159 Y89.486 E55.44958
G1 X151.285 Y90.12 E55.48182
G1 X151.943 Y94.548 E55.70516
G1 X152.007 Y95.193 E55.7375
G1 X152.228 Y99.669 E55.96108
G1 X152.228 Y100.318 E55.99346
G1 X152.008 Y104.794 E56.21704
G1 X151.945 Y105.438 E56.24932
G1 X151.288 Y109.868 E56.47275
G1 X151.162 Y110.502 E56.505
G1 X150.074 Y114.849 E56.72856
G1 X149.886 Y115.468 E56.76084
G1 X148.384 Y119.671 E56.98351
G1 X148.135 Y120.273 E57.01602
G1 X146.215 Y124.331 E57.23999
G1 X145.911 Y124.9 E57.27217
G1 X143.609 Y128.743 E57.49567
G1 X143.249 Y129.282 E57.528
G1 X140.579 Y132.883 E57.75166
G1 X140.168 Y133.383 E57.78395
G1 X137.166 Y136.697 E58.00703
G1 X136.708 Y137.156 E58.03938
G1 X133.394 Y140.16 E58.26253
G1 X132.893 Y140.571 E58.29486
G1 X129.291 Y143.243 E58.51861
G1 X128.751 Y143.604 E58.55102
G1 X124.909 Y145.906 E58.77447
G1 X124.34 Y146.21 E58.80666
G1 X120.286 Y148.128 E59.03041
G1 X119.688 Y148.376 E59.0627
G1 X115.482 Y149.882 E59.28559
G1 X114.861 Y150.07 E59.31796
G1 X110.514 Y151.159 E59.54153
G1 X109.88 Y151.285 E59.57378
G1 X105.45 Y151.943 E59.79722
G1 X104.806 Y152.007 E59.82951
G1 X100.331 Y152.228 E60.05304
G1 X99.681 Y152.228 E60.08547
G1 X95.206 Y152.008 E60.309
G1 X94.562 Y151.945 E60.34128
G1 X90.132 Y151.288 E60.56471
G1 X89.498 Y151.162 E60.59696
G1 X85.151 Y150.074 E60.82052
G1 X84.531 Y149.886 E60.85284
G1 X80.324 Y148.382 E61.07574
G1 X79.723 Y148.133 E61.1082
G1 X75.669 Y146.215 E61.33194
G1 X75.1 Y145.911 E61.36413
G1 X71.257 Y143.609 E61.58762
G1 X70.718 Y143.248 E61.61999
G1 X67.116 Y140.577 E61.84371
G1 X66.616 Y140.167 E61.87597
G1 X63.301 Y137.164 E62.09913
G1 X62.842 Y136.706 E62.13147
G1 X59.839 Y133.393 E62.35456
G1 X59.428 Y132.892 E62.38689
G1 X56.757 Y129.291 E62.61057
G1 X56.396 Y128.751 E62.64297
G1 X54.094 Y124.909 E62.86642
G1 X53.79 Y124.34 E62.89861
G1 X51.87 Y120.282 E63.12258
G1 X51.622 Y119.683 E63.15493
G1 X50.118 Y115.481 E63.37759
G1 X49.93 Y114.861 E63.40991
G1 X48.841 Y110.514 E63.63349
G1 X48.715 Y109.88 E63.66573
G1 X48.057 Y105.45 E63.88917
G1 X47.993 Y104.806 E63.92146
G1 X47.772 Y100.332 E64.14494
G1 X47.772 Y99.682 E64.17737
G1 X47.992 Y95.206 E64.40095
G1 X48.055 Y94.562 E64.43323
G1 X48.712 Y90.132 E64.65666
G1 X48.838 Y89.498 E64.68891
G1 X49.927 Y85.147 E64.91268
G1 X50.115 Y84.527 E64.945
G1 X51.616 Y80.328 E65.16747
G1 X51.865 Y79.727 E65.19993
G1 X53.785 Y75.669 E65.4239
G1 X54.089 Y75.1 E65.45609
G1 X56.391 Y71.257 E65.67958
G1 X56.751 Y70.718 E65.71192
G1 X59.421 Y67.117 E65.93557
G1 X59.832 Y66.617 E65.96786
G1 X62.834 Y63.303 E66.19094
G1 X63.292 Y62.844 E66.22329
G0 F3600 X63.561 Y63.14
G1 F1800 X66.875 Y60.136 E66.44645
G1 X67.345 Y59.75 E66.47679
