;FLAVOR:Marlin
;TIME:11721
;Filament used: 14.7475m
;Layer height: 0.2
;MINX:44.671
;MINY:44.671
;MINZ:0.3
;MAXX:155.329
;MAXY:155.329
;MAXZ:19.9
;Generated with Cura_SteamEngine 4.6.1
M140 S60
M105
M190 S60
M104 S200
M105
M109 S200
M82 ;absolute extrusion mode
G21 ;metric values
G90 ;absolute positioning
M82 ;set extruder to absolute mode
M107 ;start with the fan off
G28 X0 Y0 ;move X/Y to min endstops
G28 Z0 ;move Z to min endstops
G1 Z15.0 F9000 ;move the platform down 15mm
G92 E0 ;zero the extruded length
G1 F200 E3 ;extrude 3mm of feed stock
G92 E0 ;zero the extruded length again
G1 F9000
;Put printing message on LCD screen
M117 Printing...
G92 E0
G92 E0
G1 F1500 E-6.5
;LAYER_COUNT:99
;LAYER:0
M107
G0 F3600 X60.601 Y61.152 Z0.3
;TYPE:SKIRT
G1 F1500 E0
G1 F1800 X61.143 Y60.611 E0.03821
G1 X64.595 Y57.482 E0.27065
G1 X65.184 Y56.998 E0.30868
G1 X68.935 Y54.214 E0.54173
G1 X69.576 Y53.786 E0.58018
G1 X73.579 Y51.388 E0.81299
G1 X74.251 Y51.028 E0.85102
G1 X78.474 Y49.03 E1.0841
G1 X79.18 Y48.738 E1.12222
G1 X83.561 Y47.169 E1.35438
G1 X84.296 Y46.946 E1.3927
G1 X88.825 Y45.812 E1.62563
G1 X89.573 Y45.663 E1.66368
G1 X94.187 Y44.977 E1.8964
G1 X94.95 Y44.901 E1.93466
G1 X99.611 Y44.671 E2.16748
G1 X100.378 Y44.671 E2.20574
G1 X105.039 Y44.9 E2.43856
G1 X105.801 Y44.976 E2.47677
G1 X110.416 Y45.661 E2.70953
G1 X111.164 Y45.809 E2.74757
G1 X115.692 Y46.942 E2.98044
G1 X116.427 Y47.165 E3.01876
G1 X120.809 Y48.733 E3.25095
G1 X121.515 Y49.026 E3.28909
G1 X125.738 Y51.023 E3.52215
G1 X126.412 Y51.382 E3.56024
G1 X130.416 Y53.78 E3.79309
G1 X131.054 Y54.207 E3.83139
G1 X134.804 Y56.988 E4.06431
G1 X135.396 Y57.473 E4.10249
G1 X138.848 Y60.601 E4.3349
G1 X139.389 Y61.143 E4.37311
G1 X142.518 Y64.595 E4.60555
G1 X143.002 Y65.184 E4.64358
G1 X145.785 Y68.933 E4.87652
G1 X146.213 Y69.574 E4.91498
G1 X148.612 Y73.579 E5.14789
G1 X148.972 Y74.251 E5.18592
G1 X150.971 Y78.476 E5.41911
G1 X151.263 Y79.182 E5.45723
G1 X152.83 Y83.557 E5.68908
G1 X153.053 Y84.292 E5.7274
G1 X154.188 Y88.825 E5.96053
G1 X154.337 Y89.572 E5.99853
G1 X155.023 Y94.184 E6.23116
G1 X155.099 Y94.948 E6.26946
G1 X155.329 Y99.61 E6.50233
G1 X155.329 Y100.377 E6.5406
G1 X155.1 Y105.039 E6.77347
G1 X155.024 Y105.801 E6.81167
G1 X154.339 Y110.415 E7.04439
G1 X154.191 Y111.163 E7.08243
G1 X153.058 Y115.692 E7.31535
G1 X152.836 Y116.425 E7.35356
G1 X151.271 Y120.803 E7.58551
G1 X150.977 Y121.513 E7.62385
G1 X148.977 Y125.74 E7.85715
G1 X148.618 Y126.412 E7.89516
G1 X146.22 Y130.416 E8.12801
G1 X145.793 Y131.054 E8.16631
G1 X143.012 Y134.804 E8.39923
G1 X142.527 Y135.396 E8.43741
G1 X139.399 Y138.848 E8.66982
G1 X138.857 Y139.389 E8.70802
G1 X135.405 Y142.518 E8.94047
G1 X134.816 Y143.002 E8.9785
G1 X131.065 Y145.786 E9.21155
G1 X130.424 Y146.214 E9.25
G1 X126.421 Y148.612 E9.48281
G1 X125.749 Y148.972 E9.52084
G1 X121.526 Y150.97 E9.75392
G1 X120.82 Y151.262 E9.79203
G1 X116.439 Y152.831 E10.0242
G1 X115.704 Y153.054 E10.06252
G1 X111.176 Y154.188 E10.2954
G1 X110.428 Y154.337 E10.33345
G1 X105.813 Y155.023 E10.56622
G1 X105.05 Y155.099 E10.60447
G1 X100.389 Y155.329 E10.8373
G1 X99.622 Y155.329 E10.87556
G1 X94.961 Y155.1 E11.10838
G1 X94.199 Y155.024 E11.14658
G1 X89.585 Y154.339 E11.3793
G1 X88.837 Y154.191 E11.41734
G1 X84.308 Y153.058 E11.65026
G1 X83.573 Y152.835 E11.68858
G1 X79.191 Y151.267 E11.92077
G1 X78.485 Y150.974 E11.95891
G1 X74.262 Y148.977 E12.19196
G1 X73.588 Y148.618 E12.23006
G1 X69.584 Y146.22 E12.46291
G1 X68.945 Y145.793 E12.50125
G1 X65.194 Y143.011 E12.73424
G1 X64.603 Y142.526 E12.77238
G1 X61.15 Y139.397 E13.00486
G1 X60.609 Y138.855 E13.04307
G1 X57.481 Y135.404 E13.27544
G1 X56.996 Y134.814 E13.31354
G1 X54.213 Y131.064 E13.54652
G1 X53.786 Y130.424 E13.58491
G1 X51.388 Y126.421 E13.81771
G1 X51.028 Y125.749 E13.85574
G1 X49.028 Y121.522 E14.08904
G1 X48.735 Y120.815 E14.12723
G1 X47.168 Y116.438 E14.35917
G1 X46.946 Y115.704 E14.39743
G1 X45.812 Y111.175 E14.63035
G1 X45.663 Y110.427 E14.6684
G1 X44.977 Y105.813 E14.90113
G1 X44.901 Y105.051 E14.93933
G1 X44.671 Y100.391 E15.1721
G1 X44.671 Y99.623 E15.21042
G1 X44.9 Y94.961 E15.44329
G1 X44.976 Y94.199 E15.48149
G1 X45.661 Y89.585 E15.71421
G1 X45.809 Y88.837 E15.75225
G1 X46.943 Y84.304 E15.98537
G1 X47.166 Y83.569 E16.02369
G1 X48.731 Y79.195 E16.25546
G1 X49.024 Y78.488 E16.29364
G1 X51.023 Y74.261 E16.52692
G1 X51.382 Y73.588 E16.56497
G1 X53.78 Y69.584 E16.79782
G1 X54.207 Y68.946 E16.83612
G1 X56.988 Y65.196 E17.06904
G1 X57.473 Y64.604 E17.10722
G1 X60.601 Y61.152 E17.33963
G0 F3600 X60.897 Y61.421
G1 F1800 X61.411 Y60.907 E17.3759
G1 X64.863 Y57.778 E17.60834
G1 X65.423 Y57.319 E17.64446
G1 X69.174 Y54.535 E17.87751
G1 X69.781 Y54.129 E17.91395
G1 X73.784 Y51.731 E18.14675
G1 X74.422 Y51.39 E18.18284
G1 X78.645 Y49.392 E18.41592
G1 X79.315 Y49.114 E18.45211
G1 X83.696 Y47.545 E18.68427
G1 X84.394 Y47.334 E18.72065
G1 X88.923 Y46.2 E18.95358
G1 X89.632 Y46.058 E18.98965
G1 X94.246 Y45.372 E19.22238
G1 X94.969 Y45.301 E19.25862
G1 X99.63 Y45.071 E19.49144
G1 X100.358 Y45.071 E19.52776
G1 X105.019 Y45.3 E19.76058
G1 X105.742 Y45.371 E19.79682
G1 X110.357 Y46.056 E20.02959
G1 X111.067 Y46.197 E20.0657
G1 X115.595 Y47.33 E20.29857
G1 X116.292 Y47.542 E20.33492
G1 X120.674 Y49.11 E20.56711
G1 X121.344 Y49.387 E20.60328
G1 X125.567 Y51.384 E20.83634
G1 X126.206 Y51.725 E20.87247
G1 X130.21 Y54.123 E21.10532
G1 X130.816 Y54.528 E21.14168
G1 X134.566 Y57.309 E21.3746
G1 X135.127 Y57.769 E21.4108
G1 X138.579 Y60.897 E21.64321
G1 X139.093 Y61.411 E21.67947
G1 X142.222 Y64.863 E21.91191
G1 X142.681 Y65.422 E21.948
G1 X145.464 Y69.171 E22.18094
G1 X145.87 Y69.779 E22.21741
G1 X148.269 Y73.784 E22.45033
G1 X148.61 Y74.422 E22.48642
G1 X150.609 Y78.647 E22.71961
G1 X150.887 Y79.317 E22.7558
G1 X152.454 Y83.692 E22.98765
G1 X152.665 Y84.39 E23.02403
G1 X153.8 Y88.923 E23.25716
G1 X153.941 Y89.631 E23.29317
G1 X154.627 Y94.243 E23.5258
G1 X154.699 Y94.967 E23.5621
G1 X154.929 Y99.629 E23.79497
G1 X154.929 Y100.357 E23.83129
G1 X154.7 Y105.019 E24.06416
G1 X154.629 Y105.743 E24.10045
G1 X153.944 Y110.357 E24.33317
G1 X153.803 Y111.066 E24.36923
G1 X152.67 Y115.595 E24.60215
G1 X152.459 Y116.29 E24.63839
G1 X150.894 Y120.668 E24.87034
G1 X150.615 Y121.342 E24.90673
G1 X148.615 Y125.569 E25.14003
G1 X148.275 Y126.206 E25.17606
G1 X145.877 Y130.21 E25.4089
G1 X145.472 Y130.816 E25.44527
G1 X142.691 Y134.566 E25.67819
G1 X142.231 Y135.127 E25.71438
G1 X139.103 Y138.579 E25.94679
G1 X138.589 Y139.093 E25.98306
G1 X135.137 Y142.222 E26.2155
G1 X134.577 Y142.681 E26.25162
G1 X130.826 Y145.465 E26.48467
G1 X130.219 Y145.871 E26.52111
G1 X126.216 Y148.269 E26.75391
G1 X125.578 Y148.61 E26.79
G1 X121.355 Y150.608 E27.02308
G1 X120.685 Y150.886 E27.05927
G1 X116.304 Y152.455 E27.29143
G1 X115.607 Y152.666 E27.32776
G1 X111.079 Y153.8 E27.56064
G1 X110.369 Y153.942 E27.59676
G1 X105.754 Y154.628 E27.82954
G1 X105.031 Y154.699 E27.86578
G1 X100.37 Y154.929 E28.0986
G1 X99.642 Y154.929 E28.13492
G1 X94.981 Y154.7 E28.36774
G1 X94.257 Y154.629 E28.40404
G1 X89.643 Y153.944 E28.63675
G1 X88.934 Y153.803 E28.67282
G1 X84.405 Y152.67 E28.90573
G1 X83.708 Y152.458 E28.94208
G1 X79.326 Y150.89 E29.17427
G1 X78.656 Y150.613 E29.21044
G1 X74.433 Y148.616 E29.4435
G1 X73.794 Y148.275 E29.47963
G1 X69.79 Y145.877 E29.71248
G1 X69.184 Y145.472 E29.74884
G1 X65.433 Y142.69 E29.98183
G1 X64.872 Y142.23 E30.01803
G1 X61.419 Y139.101 E30.25051
G1 X60.905 Y138.587 E30.28677
G1 X57.777 Y135.136 E30.51914
G1 X57.318 Y134.576 E30.55527
G1 X54.535 Y130.826 E30.78825
G1 X54.129 Y130.219 E30.82468
G1 X51.731 Y126.216 E31.05748
G1 X51.39 Y125.578 E31.09358
G1 X49.39 Y121.351 E31.32688
G1 X49.112 Y120.68 E31.36311
G1 X47.545 Y116.303 E31.59505
G1 X47.334 Y115.606 E31.63139
G1 X46.2 Y111.077 E31.86431
G1 X46.058 Y110.368 E31.90039
G1 X45.372 Y105.754 E32.13311
G1 X45.301 Y105.031 E32.16936
G1 X45.071 Y100.371 E32.40213
G1 X45.071 Y99.643 E32.43845
G1 X45.3 Y94.981 E32.67132
G1 X45.371 Y94.257 E32.70761
G1 X46.056 Y89.643 E32.94033
G1 X46.197 Y88.934 E32.97639
G1 X47.331 Y84.401 E33.20951
G1 X47.543 Y83.704 E33.24586
G1 X49.108 Y79.33 E33.47763
G1 X49.385 Y78.659 E33.51384
G1 X51.384 Y74.432 E33.74712
G1 X51.725 Y73.794 E33.78321
G1 X54.123 Y69.79 E34.01606
G1 X54.528 Y69.184 E34.05242
G1 X57.309 Y65.434 E34.28534
G1 X57.769 Y64.873 E34.32154
G1 X60.897 Y61.421 E34.55395
G0 F3600 X61.194 Y61.69
G1 F1800 X61.68 Y61.204 E34.58824
G1 X65.132 Y58.075 E34.82068
G1 X65.661 Y57.64 E34.85485
G1 X69.412 Y54.856 E35.0879
G1 X69.987 Y54.472 E35.12239
G1 X73.99 Y52.074 E35.3552
G1 X74.593 Y51.751 E35.38932
G1 X78.816 Y49.753 E35.6224
G1 X79.45 Y49.491 E35.65663
G1 X83.831 Y47.922 E35.88879
G1 X84.491 Y47.722 E35.92319
G1 X89.02 Y46.588 E36.15612
G1 X89.691 Y46.454 E36.19026
G1 X94.305 Y45.768 E36.42298
G1 X94.989 Y45.701 E36.45727
G1 X99.65 Y45.471 E36.69009
G1 X100.339 Y45.47 E36.72447
G1 X105 Y45.699 E36.95729
G1 X105.684 Y45.767 E36.99158
G1 X110.299 Y46.452 E37.22435
G1 X110.97 Y46.585 E37.25847
G1 X115.498 Y47.718 E37.49134
G1 X116.157 Y47.918 E37.5257
G1 X120.539 Y49.486 E37.75789
G1 X121.173 Y49.749 E37.79214
G1 X125.396 Y51.746 E38.02519
G1 X126.001 Y52.069 E38.05941
G1 X130.005 Y54.467 E38.29225
G1 X130.578 Y54.849 E38.32661
G1 X134.328 Y57.63 E38.55953
G1 X134.858 Y58.066 E38.59377
G1 X138.31 Y61.194 E38.82618
G1 X138.796 Y61.68 E38.86047
G1 X141.925 Y65.132 E39.09291
G1 X142.36 Y65.661 E39.12708
G1 X145.143 Y69.41 E39.36002
G1 X145.527 Y69.985 E39.39452
G1 X147.926 Y73.99 E39.62743
G1 X148.249 Y74.593 E39.66156
G1 X150.248 Y78.818 E39.89475
G1 X150.51 Y79.452 E39.92897
G1 X152.077 Y83.827 E40.16082
G1 X152.277 Y84.487 E40.19523
G1 X153.412 Y89.02 E40.42836
G1 X153.546 Y89.69 E40.46245
G1 X154.232 Y94.302 E40.69507
G1 X154.299 Y94.987 E40.72941
G1 X154.529 Y99.649 E40.96228
G1 X154.53 Y100.337 E40.99661
G1 X154.301 Y104.999 E41.22947
G1 X154.233 Y105.684 E41.26382
G1 X153.548 Y110.298 E41.49653
G1 X153.415 Y110.969 E41.53066
G1 X152.282 Y115.498 E41.76358
G1 X152.083 Y116.155 E41.79783
G1 X150.518 Y120.533 E42.02978
G1 X150.253 Y121.171 E42.06425
G1 X148.253 Y125.398 E42.29755
G1 X147.931 Y126.001 E42.33165
G1 X145.533 Y130.005 E42.5645
G1 X145.151 Y130.578 E42.59886
G1 X142.37 Y134.328 E42.83178
G1 X141.934 Y134.858 E42.86602
G1 X138.806 Y138.31 E43.09842
G1 X138.32 Y138.796 E43.13271
G1 X134.868 Y141.925 E43.36516
G1 X134.339 Y142.36 E43.39932
G1 X130.588 Y145.144 E43.63237
G1 X130.013 Y145.528 E43.66687
G1 X126.01 Y147.926 E43.89967
G1 X125.407 Y148.249 E43.9338
G1 X121.184 Y150.247 E44.16688
G1 X120.55 Y150.509 E44.2011
G1 X116.169 Y152.078 E44.43327
G1 X115.51 Y152.278 E44.46763
G1 X110.982 Y153.412 E44.7005
G1 X110.31 Y153.546 E44.73469
G1 X105.695 Y154.232 E44.96746
G1 X105.011 Y154.299 E45.00175
G1 X100.35 Y154.529 E45.23457
G1 X99.661 Y154.53 E45.26895
G1 X95 Y154.301 E45.50177
G1 X94.316 Y154.233 E45.53606
G1 X89.702 Y153.548 E45.76878
G1 X89.031 Y153.415 E45.8029
G1 X84.502 Y152.282 E46.03582
G1 X83.843 Y152.082 E46.07018
G1 X79.461 Y150.514 E46.30237
G1 X78.827 Y150.251 E46.33662
G1 X74.604 Y148.254 E46.56967
G1 X73.999 Y147.931 E46.60389
G1 X69.995 Y145.533 E46.83673
G1 X69.422 Y145.15 E46.87112
G1 X65.671 Y142.368 E47.10411
G1 X65.141 Y141.933 E47.13832
G1 X61.688 Y138.804 E47.37079
G1 X61.201 Y138.318 E47.40512
G1 X58.073 Y134.867 E47.63749
G1 X57.639 Y134.338 E47.67163
G1 X54.856 Y130.588 E47.90461
G1 X54.472 Y130.013 E47.9391
G1 X52.074 Y126.01 E48.17191
G1 X51.752 Y125.407 E48.20601
G1 X49.752 Y121.18 E48.43931
G1 X49.489 Y120.545 E48.4736
G1 X47.922 Y116.168 E48.70554
G1 X47.722 Y115.509 E48.7399
G1 X46.588 Y110.98 E48.97283
G1 X46.454 Y110.309 E49.00697
G1 X45.768 Y105.695 E49.23969
G1 X45.701 Y105.011 E49.27398
G1 X45.471 Y100.351 E49.50675
G1 X45.47 Y99.663 E49.54108
G1 X45.699 Y95.001 E49.77394
G1 X45.767 Y94.316 E49.80829
G1 X46.452 Y89.702 E50.041
G1 X46.585 Y89.031 E50.07513
G1 X47.719 Y84.498 E50.30825
G1 X47.919 Y83.839 E50.34261
G1 X49.484 Y79.465 E50.57438
G1 X49.747 Y78.83 E50.60867
G1 X51.746 Y74.603 E50.84195
G1 X52.069 Y73.999 E50.87612
G1 X54.467 Y69.995 E51.10896
G1 X54.849 Y69.422 E51.14332
G1 X57.63 Y65.672 E51.37624
G1 X58.066 Y65.142 E51.41048
G1 X61.194 Y61.69 E51.64289
G0 F3600 X61.49 Y61.958
G1 F1800 X61.948 Y61.5 E51.6752
G1 X65.4 Y58.371 E51.90765
G1 X65.899 Y57.961 E51.93987
G1 X69.65 Y55.177 E52.17292
G1 X70.192 Y54.815 E52.20543
G1 X74.195 Y52.417 E52.43824
G1 X74.764 Y52.113 E52.47042
G1 X78.987 Y50.115 E52.7035
G1 X79.585 Y49.867 E52.7358
G1 X83.966 Y48.298 E52.96796
G1 X84.588 Y48.11 E53.00038
G1 X89.117 Y46.976 E53.23331
G1 X89.749 Y46.85 E53.26546
G1 X94.363 Y46.164 E53.49818
G1 X95.009 Y46.1 E53.53057
G1 X99.67 Y45.87 E53.76339
G1 X100.319 Y45.87 E53.79577
G1 X104.98 Y46.099 E54.02859
G1 X105.625 Y46.163 E54.06093
G1 X110.24 Y46.848 E54.29369
G1 X110.873 Y46.973 E54.32588
G1 X115.401 Y48.106 E54.55875
G1 X116.023 Y48.295 E54.59118
G1 X120.405 Y49.863 E54.82337
G1 X121.002 Y50.11 E54.85561
G1 X125.225 Y52.107 E55.08866
G1 X125.795 Y52.412 E55.12092
G1 X129.799 Y54.81 E55.35376
G1 X130.339 Y55.171 E55.38617
G1 X134.089 Y57.952 E55.61909
G1 X134.59 Y58.362 E55.65139
G1 X138.042 Y61.49 E55.8838
G1 X138.5 Y61.948 E55.91611
G1 X141.629 Y65.4 E56.14855
G1 X142.038 Y65.899 E56.18074
G1 X144.821 Y69.648 E56.41368
G1 X145.184 Y70.19 E56.44623
G1 X147.583 Y74.195 E56.67914
G1 X147.887 Y74.764 E56.71133
G1 X149.886 Y78.989 E56.94451
G1 X150.133 Y79.587 E56.97679
G1 X151.7 Y83.962 E57.20864
G1 X151.889 Y84.584 E57.24107
G1 X153.024 Y89.117 E57.47421
G1 X153.15 Y89.749 E57.50636
G1 X153.836 Y94.361 E57.73898
G1 X153.9 Y95.007 E57.77137
G1 X154.13 Y99.669 E58.00424
G1 X154.13 Y100.318 E58.03662
G1 X153.901 Y104.98 E58.26949
G1 X153.837 Y105.625 E58.30183
G1 X153.152 Y110.239 E58.53454
G1 X153.027 Y110.872 E58.56673
G1 X151.894 Y115.401 E58.79965
G1 X151.706 Y116.021 E58.83197
G1 X150.141 Y120.399 E59.06393
G1 X149.892 Y121 E59.09638
G1 X147.892 Y125.227 E59.32968
G1 X147.588 Y125.795 E59.36182
G1 X145.19 Y129.799 E59.59467
G1 X144.829 Y130.339 E59.62708
G1 X142.048 Y134.089 E59.86
G1 X141.638 Y134.59 E59.89229
G1 X138.51 Y138.042 E60.1247
G1 X138.052 Y138.5 E60.15702
G1 X134.6 Y141.629 E60.38946
G1 X134.101 Y142.039 E60.42168
G1 X130.35 Y144.823 E60.65473
G1 X129.808 Y145.185 E60.68725
G1 X125.805 Y147.583 E60.92005
G1 X125.236 Y147.887 E60.95223
G1 X121.013 Y149.885 E61.18531
G1 X120.415 Y150.133 E61.21761
G1 X116.034 Y151.702 E61.44977
G1 X115.412 Y151.89 E61.48219
G1 X110.884 Y153.024 E61.71507
G1 X110.251 Y153.15 E61.74727
G1 X105.636 Y153.836 E61.98004
G1 X104.991 Y153.9 E62.01238
G1 X100.33 Y154.13 E62.2452
G1 X99.681 Y154.13 E62.27758
G1 X95.02 Y153.901 E62.5104
G1 X94.375 Y153.837 E62.54274
G1 X89.761 Y153.152 E62.77545
G1 X89.128 Y153.027 E62.80764
G1 X84.599 Y151.894 E63.04056
G1 X83.977 Y151.705 E63.07299
G1 X79.595 Y150.137 E63.30519
G1 X78.998 Y149.89 E63.33742
G1 X74.775 Y147.893 E63.57047
G1 X74.205 Y147.588 E63.60273
G1 X70.201 Y145.19 E63.83557
G1 X69.66 Y144.829 E63.86802
G1 X65.909 Y142.047 E64.10101
G1 X65.409 Y141.637 E64.13327
G1 X61.956 Y138.508 E64.36575
G1 X61.498 Y138.049 E64.3981
G1 X58.37 Y134.598 E64.63047
G1 X57.96 Y134.099 E64.66269
G1 X55.177 Y130.349 E64.89567
G1 X54.815 Y129.808 E64.92815
G1 X52.417 Y125.805 E65.16095
G1 X52.113 Y125.236 E65.19314
G1 X50.113 Y121.009 E65.42644
G1 X49.865 Y120.411 E65.45873
G1 X48.298 Y116.034 E65.69068
G1 X48.11 Y115.412 E65.72309
G1 X46.976 Y110.883 E65.95602
G1 X46.85 Y110.251 E65.98817
G1 X46.164 Y105.637 E66.2209
G1 X46.1 Y104.991 E66.25328
G1 X45.87 Y100.331 E66.48606
G1 X45.87 Y99.682 E66.51843
G1 X46.099 Y95.02 E66.7513
G1 X46.163 Y94.375 E66.78364
G1 X46.848 Y89.761 E67.01636
G1 X46.973 Y89.128 E67.04855
G1 X48.107 Y84.595 E67.28167
G1 X48.296 Y83.974 E67.31405
G1 X49.861 Y79.6 E67.54582
G1 X50.109 Y79.001 E67.57816
G1 X52.108 Y74.774 E67.81144
G1 X52.412 Y74.205 E67.84363
G1 X54.81 Y70.201 E68.07647
G1 X55.171 Y69.661 E68.10888
G1 X57.952 Y65.911 E68.3418
G1 X58.362 Y65.41 E68.3741
G1 X61.49 Y61.958 E68.60651
G0 F3600 X61.787 Y62.227
G1 F1800 X62.217 Y61.796 E68.63688
