;FLAVOR:Marlin
;TIME:11487
;Filament used: 13.3303m
;Layer height: 0.2
;MINX:32.2
;MINY:71.7
;MINZ:0.3
;MAXX:167.8
;MAXY:128.3
;MAXZ:54.5
;Generated with Cura_SteamEngine 4.6.1
M140 S60
M105
M190 S60
M104 S200
M105
M109 S200
M82 ;absolute extrusion mode
G21 ;metric values
G90 ;absolute positioning
M82 ;set extruder to absolute mode
M107 ;start with the fan off
G28 X0 Y0 ;move X/Y to min endstops
G28 Z0 ;move Z to min endstops
G1 Z15.0 F9000 ;move the platform down 15mm
G92 E0 ;zero the extruded length
G1 F200 E3 ;extrude 3mm of feed stock
G92 E0 ;zero the extruded length again
G1 F9000
;Put printing message on LCD screen
M117 Printing...
G92 E0
G92 E0
G1 F1500 E-6.5
;LAYER_COUNT:272
;LAYER:0
M107
G0 F3600 X36.504 Y72.587 Z0.3
;TYPE:SKIRT
G1 F1500 E0
G1 F1800 X37.222 Y72.257 E0.03942
G1 X37.969 Y72.002 E0.0788
G1 X38.738 Y71.823 E0.11819
G1 X39.522 Y71.723 E0.15763
G1 X40.117 Y71.7 E0.18733
G1 X159.883 Y71.7 E6.16248
G1 X160.672 Y71.74 E6.2019
G1 X161.452 Y71.859 E6.24126
G1 X162.217 Y72.057 E6.28068
G1 X162.957 Y72.331 E6.32005
G1 X163.666 Y72.679 E6.35946
G1 X164.337 Y73.097 E6.3989
G1 X164.961 Y73.58 E6.43826
G1 X165.398 Y73.985 E6.46799
G1 X166.045 Y74.688 E6.51566
G1 X166.512 Y75.324 E6.55502
G1 X166.913 Y76.004 E6.59441
G1 X167.243 Y76.722 E6.63383
G1 X167.498 Y77.469 E6.67321
G1 X167.677 Y78.238 E6.7126
G1 X167.777 Y79.022 E6.75203
G1 X167.8 Y79.617 E6.78174
G1 X167.8 Y107.383 E8.16699
G1 X167.76 Y108.172 E8.2064
G1 X167.641 Y108.952 E8.24577
G1 X167.443 Y109.717 E8.28519
G1 X167.169 Y110.457 E8.32456
G1 X166.821 Y111.166 E8.36396
G1 X166.403 Y111.837 E8.4034
G1 X165.92 Y112.461 E8.44277
G1 X165.515 Y112.898 E8.4725
G1 X164.812 Y113.545 E8.52016
G1 X164.176 Y114.012 E8.55953
G1 X163.496 Y114.413 E8.59891
G1 X162.778 Y114.743 E8.63834
G1 X162.031 Y114.998 E8.67772
G1 X161.262 Y115.177 E8.71711
G1 X160.478 Y115.277 E8.75654
G1 X159.883 Y115.3 E8.78624
G1 X159.525 Y115.3 E8.80411
G1 X147.226 Y123.294 E9.53593
G1 X147.169 Y123.447 E9.54407
G1 X146.821 Y124.156 E9.58348
G1 X146.403 Y124.827 E9.62292
G1 X145.92 Y125.451 E9.66228
G1 X145.515 Y125.888 E9.69201
G1 X144.812 Y126.535 E9.73968
G1 X144.176 Y127.002 E9.77904
G1 X143.496 Y127.403 E9.81843
G1 X142.778 Y127.733 E9.85785
G1 X142.031 Y127.988 E9.89723
G1 X141.262 Y128.167 E9.93662
G1 X140.478 Y128.267 E9.97605
G1 X139.884 Y128.29 E10.00571
G1 X60.452 Y128.3 E13.96859
G1 X59.929 Y128.29 E13.99468
G1 X59.141 Y128.231 E14.03411
G1 X58.364 Y128.093 E14.07348
G1 X57.604 Y127.877 E14.1129
G1 X56.87 Y127.586 E14.15229
G1 X56.17 Y127.221 E14.19168
G1 X55.51 Y126.788 E14.23106
G1 X54.897 Y126.29 E14.27046
G1 X54.527 Y125.935 E14.29604
G1 X53.892 Y125.226 E14.34353
G1 X53.433 Y124.583 E14.38294
G1 X53.041 Y123.897 E14.42236
G1 X52.72 Y123.176 E14.46173
G1 X52.619 Y122.868 E14.4779
G1 X40.975 Y115.3 E15.17075
G1 X40.117 Y115.3 E15.21355
G1 X39.328 Y115.26 E15.25297
G1 X38.548 Y115.141 E15.29233
G1 X37.783 Y114.943 E15.33175
G1 X37.043 Y114.669 E15.37112
G1 X36.334 Y114.321 E15.41053
G1 X35.663 Y113.903 E15.44997
G1 X35.039 Y113.42 E15.48933
G1 X34.602 Y113.015 E15.51906
G1 X33.955 Y112.312 E15.56672
G1 X33.488 Y111.676 E15.60609
G1 X33.087 Y110.996 E15.64548
G1 X32.757 Y110.278 E15.6849
G1 X32.502 Y109.531 E15.72428
G1 X32.323 Y108.762 E15.76367
G1 X32.223 Y107.978 E15.8031
G1 X32.2 Y107.383 E15.83281
G1 X32.2 Y79.617 E17.21806
G1 X32.24 Y78.828 E17.25747
G1 X32.359 Y78.048 E17.29684
G1 X32.557 Y77.283 E17.33626
G1 X32.831 Y76.543 E17.37563
G1 X33.179 Y75.834 E17.41503
G1 X33.597 Y75.163 E17.45447
G1 X34.08 Y74.539 E17.49384
G1 X34.485 Y74.102 E17.52357
G1 X35.188 Y73.455 E17.57123
G1 X35.824 Y72.988 E17.6106
G1 X36.504 Y72.587 E17.64998
G0 F3600 X36.743 Y72.914
G1 F1800 X37.445 Y72.599 E17.68837
G1 X38.176 Y72.359 E17.72675
G1 X38.927 Y72.196 E17.76509
G1 X39.692 Y72.112 E17.80349
G1 X159.883 Y72.1 E23.79984
G1 X160.651 Y72.14 E23.83821
G1 X161.411 Y72.259 E23.87659
G1 X162.154 Y72.457 E23.91495
G1 X162.873 Y72.731 E23.95334
G1 X163.559 Y73.078 E23.99169
G1 X164.206 Y73.494 E24.03007
G1 X164.806 Y73.975 E24.06843
G1 X165.233 Y74.384 E24.09793
G1 X165.747 Y74.956 E24.1363
G1 X166.2 Y75.578 E24.17469
G1 X166.586 Y76.243 E24.21305
G1 X166.901 Y76.945 E24.25144
G1 X167.141 Y77.676 E24.28982
G1 X167.304 Y78.427 E24.32816
G1 X167.388 Y79.192 E24.36656
G1 X167.4 Y107.383 E25.77301
G1 X167.36 Y108.151 E25.81138
G1 X167.241 Y108.911 E25.84976
G1 X167.043 Y109.654 E25.88812
G1 X166.769 Y110.373 E25.92651
G1 X166.422 Y111.059 E25.96486
G1 X166.006 Y111.706 E26.00324
G1 X165.525 Y112.306 E26.0416
G1 X165.116 Y112.733 E26.0711
G1 X164.544 Y113.247 E26.10947
G1 X163.922 Y113.7 E26.14786
G1 X163.257 Y114.086 E26.18622
G1 X162.555 Y114.401 E26.2246
G1 X161.824 Y114.641 E26.26299
G1 X161.073 Y114.804 E26.30133
G1 X160.308 Y114.888 E26.33973
G1 X159.407 Y114.9 E26.38468
G1 X146.895 Y123.032 E27.12916
G1 X146.769 Y123.363 E27.14683
G1 X146.422 Y124.049 E27.18519
G1 X146.006 Y124.696 E27.22356
G1 X145.525 Y125.296 E27.26193
G1 X145.116 Y125.723 E27.29143
G1 X144.544 Y126.237 E27.32979
G1 X143.922 Y126.69 E27.36818
G1 X143.257 Y127.076 E27.40654
G1 X142.555 Y127.391 E27.44493
G1 X141.824 Y127.631 E27.48332
G1 X141.073 Y127.794 E27.52166
G1 X140.308 Y127.878 E27.56005
G1 X60.452 Y127.9 E31.54408
G1 X59.938 Y127.89 E31.56973
G1 X59.171 Y127.832 E31.60811
G1 X58.415 Y127.694 E31.64645
G1 X57.676 Y127.479 E31.68485
G1 X56.964 Y127.188 E31.72322
G1 X56.286 Y126.825 E31.76159
G1 X55.649 Y126.394 E31.79996
G1 X54.814 Y125.656 E31.85556
G1 X54.192 Y124.961 E31.90209
G1 X53.748 Y124.334 E31.94042
G1 X53.371 Y123.663 E31.97882
G1 X53.065 Y122.957 E32.01721
G1 X52.956 Y122.61 E32.03535
G1 X41.093 Y114.9 E32.74121
G1 X40.117 Y114.9 E32.78991
G1 X39.349 Y114.86 E32.82827
G1 X38.589 Y114.741 E32.86665
G1 X37.846 Y114.543 E32.90501
G1 X37.127 Y114.269 E32.9434
G1 X36.441 Y113.922 E32.98176
G1 X35.794 Y113.506 E33.02013
G1 X35.194 Y113.025 E33.0585
G1 X34.767 Y112.616 E33.088
G1 X34.253 Y112.044 E33.12636
G1 X33.8 Y111.422 E33.16475
G1 X33.414 Y110.757 E33.20311
G1 X33.099 Y110.055 E33.2415
G1 X32.859 Y109.324 E33.27989
G1 X32.696 Y108.573 E33.31822
G1 X32.612 Y107.808 E33.35662
G1 X32.6 Y79.617 E34.76308
G1 X32.64 Y78.849 E34.80144
G1 X32.759 Y78.089 E34.83982
G1 X32.957 Y77.346 E34.87818
G1 X33.231 Y76.627 E34.91657
G1 X33.578 Y75.941 E34.95492
G1 X33.994 Y75.294 E34.9933
G1 X34.475 Y74.694 E35.03167
G1 X34.884 Y74.267 E35.06116
G1 X35.456 Y73.753 E35.09953
G1 X36.078 Y73.3 E35.13792
G1 X36.743 Y72.914 E35.17628
G0 F3600 X36.98 Y73.242
G1 F1800 X37.666 Y72.943 E35.21362
G1 X38.38 Y72.719 E35.25095
G1 X39.113 Y72.572 E35.28825
G1 X40.117 Y72.5 E35.33847
G1 X159.883 Y72.5 E41.31362
G1 X160.63 Y72.54 E41.35094
G1 X161.368 Y72.659 E41.38823
G1 X162.09 Y72.857 E41.42558
G1 X162.786 Y73.13 E41.46288
G1 X163.449 Y73.477 E41.50021
G1 X164.072 Y73.892 E41.53756
G1 X164.833 Y74.55 E41.58775
G1 X165.45 Y75.224 E41.63334
G1 X165.887 Y75.83 E41.67061
G1 X166.258 Y76.48 E41.70795
G1 X166.557 Y77.166 E41.74529
G1 X166.781 Y77.88 E41.78262
G1 X166.928 Y78.613 E41.81992
G1 X167 Y79.617 E41.87014
G1 X167 Y107.383 E43.25539
G1 X166.96 Y108.13 E43.29271
G1 X166.841 Y108.868 E43.33
G1 X166.643 Y109.59 E43.36735
G1 X166.37 Y110.286 E43.40465
G1 X166.023 Y110.949 E43.44199
G1 X165.608 Y111.572 E43.47933
G1 X164.95 Y112.333 E43.52952
G1 X164.276 Y112.95 E43.57511
G1 X163.67 Y113.387 E43.61239
G1 X163.02 Y113.758 E43.64973
G1 X162.334 Y114.057 E43.68706
G1 X161.62 Y114.281 E43.72439
G1 X160.887 Y114.428 E43.76169
G1 X159.883 Y114.5 E43.81191
G1 X159.288 Y114.5 E43.84159
G1 X146.57 Y122.766 E44.59834
G1 X146.37 Y123.276 E44.62567
G1 X146.023 Y123.939 E44.663
G1 X145.608 Y124.562 E44.70035
G1 X144.95 Y125.323 E44.75054
G1 X144.276 Y125.94 E44.79613
G1 X143.67 Y126.377 E44.8334
G1 X143.02 Y126.748 E44.87074
G1 X142.334 Y127.047 E44.90808
G1 X141.62 Y127.271 E44.94541
G1 X140.887 Y127.418 E44.98271
G1 X139.884 Y127.49 E45.03288
G1 X60.452 Y127.5 E48.99575
G1 X59.948 Y127.49 E49.0209
G1 X59.202 Y127.432 E49.05823
G1 X58.467 Y127.295 E49.09554
G1 X57.75 Y127.081 E49.13287
G1 X57.06 Y126.791 E49.17021
G1 X56.406 Y126.429 E49.2075
G1 X55.793 Y125.999 E49.24486
G1 X55.1 Y125.377 E49.29131
G1 X54.494 Y124.697 E49.33676
G1 X54.064 Y124.085 E49.37407
G1 X53.702 Y123.43 E49.41141
G1 X53.412 Y122.741 E49.4487
G1 X53.296 Y122.353 E49.46891
G1 X41.212 Y114.5 E50.1879
G1 X40.117 Y114.5 E50.24253
G1 X39.37 Y114.46 E50.27985
G1 X38.632 Y114.341 E50.31715
G1 X37.91 Y114.143 E50.3545
G1 X37.214 Y113.87 E50.3918
G1 X36.551 Y113.523 E50.42913
G1 X35.928 Y113.108 E50.46648
G1 X35.167 Y112.45 E50.51667
G1 X34.55 Y111.776 E50.56226
G1 X34.113 Y111.17 E50.59953
G1 X33.742 Y110.52 E50.63687
G1 X33.443 Y109.834 E50.67421
G1 X33.219 Y109.12 E50.71154
G1 X33.072 Y108.387 E50.74884
G1 X33 Y107.383 E50.79906
G1 X33 Y79.617 E52.18431
G1 X33.04 Y78.87 E52.22163
G1 X33.159 Y78.132 E52.25892
G1 X33.357 Y77.41 E52.29627
G1 X33.63 Y76.714 E52.33357
G1 X33.977 Y76.051 E52.37091
G1 X34.392 Y75.428 E52.40825
G1 X35.05 Y74.667 E52.45844
G1 X35.724 Y74.05 E52.50403
G1 X36.33 Y73.613 E52.54131
G1 X36.98 Y73.242 E52.57864
G0 F3600 X37.216 Y73.572
G1 F1800 X37.885 Y73.289 E52.61488
G1 X38.581 Y73.081 E52.65113
G1 X39.296 Y72.951 E52.68738
G1 X40.117 Y72.9 E52.72842
G1 X159.883 Y72.9 E58.70357
G1 X160.608 Y72.94 E58.7398
G1 X161.325 Y73.059 E58.77606
G1 X162.024 Y73.257 E58.8123
G1 X162.697 Y73.53 E58.84854
G1 X163.336 Y73.875 E58.88477
G1 X163.933 Y74.289 E58.92101
G1 X164.55 Y74.833 E58.96205
G1 X165.151 Y75.491 E59.00651
G1 X165.574 Y76.082 E59.04277
G1 X165.928 Y76.716 E59.079
G1 X166.211 Y77.385 E59.11524
G1 X166.419 Y78.081 E59.15148
G1 X166.549 Y78.796 E59.18773
G1 X166.6 Y79.617 E59.22877
G1 X166.6 Y107.383 E60.61402
G1 X166.56 Y108.108 E60.65025
G1 X166.441 Y108.825 E60.68651
G1 X166.243 Y109.524 E60.72275
G1 X165.97 Y110.197 E60.75899
G1 X165.625 Y110.836 E60.79522
G1 X165.211 Y111.433 E60.83146
G1 X164.667 Y112.05 E60.8725
G1 X164.009 Y112.651 E60.91696
G1 X163.418 Y113.074 E60.95322
G1 X162.784 Y113.428 E60.98945
G1 X162.115 Y113.711 E61.02569
G1 X161.419 Y113.919 E61.06193
G1 X160.704 Y114.049 E61.09818
G1 X159.883 Y114.1 E61.13922
G1 X159.17 Y114.1 E61.17479
G1 X146.247 Y122.499 E61.94373
G1 X145.97 Y123.187 E61.98073
G1 X145.625 Y123.826 E62.01696
G1 X145.211 Y124.423 E62.05321
G1 X144.667 Y125.04 E62.09425
G1 X144.009 Y125.641 E62.13871
G1 X143.418 Y126.064 E62.17497
G1 X142.784 Y126.418 E62.21119
G1 X142.115 Y126.701 E62.24743
G1 X141.419 Y126.909 E62.28367
G1 X140.704 Y127.039 E62.31993
G1 X139.884 Y127.09 E62.36092
G1 X60.452 Y127.1 E66.3238
G1 X59.957 Y127.09 E66.3485
G1 X59.233 Y127.033 E66.38473
G1 X58.52 Y126.897 E66.42094
G1 X57.826 Y126.683 E66.45718
G1 X57.159 Y126.394 E66.49344
G1 X56.529 Y126.033 E66.52967
G1 X55.941 Y125.606 E66.56592
G1 X55.387 Y125.098 E66.60342
G1 X54.795 Y124.434 E66.6478
G1 X54.381 Y123.837 E66.68405
G1 X54.035 Y123.199 E66.72026
G1 X53.76 Y122.526 E66.75653
G1 X53.639 Y122.1 E66.77862
G1 X41.33 Y114.1 E67.51103
G1 X40.117 Y114.1 E67.57154
G1 X39.392 Y114.06 E67.60777
G1 X38.675 Y113.941 E67.64403
G1 X37.976 Y113.743 E67.68027
G1 X37.303 Y113.47 E67.71651
G1 X36.664 Y113.125 E67.75274
G1 X36.067 Y112.711 E67.78898
G1 X35.45 Y112.167 E67.83002
G1 X34.849 Y111.509 E67.87448
G1 X34.426 Y110.918 E67.91074
G1 X34.072 Y110.284 E67.94697
G1 X33.789 Y109.615 E67.98321
G1 X33.581 Y108.919 E68.01945
G1 X33.451 Y108.204 E68.0557
G1 X33.4 Y107.383 E68.09674
G1 X33.4 Y79.617 E69.482
G1 X33.44 Y78.892 E69.51822
G1 X33.559 Y78.175 E69.55448
G1 X33.757 Y77.476 E69.59073
G1 X34.03 Y76.803 E69.62696
G1 X34.375 Y76.164 E69.66319
G1 X34.789 Y75.567 E69.69943
G1 X35.333 Y74.95 E69.74047
G1 X35.991 Y74.349 E69.78493
G1 X36.582 Y73.926 E69.82119
G1 X37.216 Y73.572 E69.85742
G0 F3600 X37.451 Y73.903
G1 F1800 X38.102 Y73.636 E69.89252
G1 X38.78 Y73.446 E69.92765
G1 X39.475 Y73.333 E69.96278
G1 X40.117 Y73.3 E69.99485
G1 X159.883 Y73.3 E75.97
G1 X160.586 Y73.34 E76.00513
G1 X161.28 Y73.459 E76.04026
G1 X161.955 Y73.657 E76.07536
G1 X162.604 Y73.929 E76.11046
G1 X163.218 Y74.274 E76.1456
G1 X163.789 Y74.685 E76.1807
G1 X164.267 Y75.116 E76.21281
G1 X164.853 Y75.758 E76.25618
G1 X165.259 Y76.333 E76.29129
G1 X165.597 Y76.951 E76.32644
G1 X165.864 Y77.602 E76.36154
G1 X166.054 Y78.28 E76.39667
G1 X166.167 Y78.975 E76.4318
G1 X166.2 Y79.617 E76.46387
G1 X166.2 Y107.383 E77.84912
G1 X166.16 Y108.086 E77.88425
G1 X166.041 Y108.78 E77.91938
G1 X165.843 Y109.455 E77.95447
G1 X165.571 Y110.104 E77.98958
G1 X165.226 Y110.718 E78.02472
G1 X164.815 Y111.289 E78.05982
G1 X164.384 Y111.767 E78.09193
G1 X163.742 Y112.353 E78.13529
G1 X163.167 Y112.759 E78.17041
G1 X162.549 Y113.097 E78.20555
G1 X161.898 Y113.364 E78.24066
G1 X161.22 Y113.554 E78.27579
G1 X160.525 Y113.667 E78.31092
G1 X159.883 Y113.7 E78.34299
G1 X159.05 Y113.7 E78.38455
G1 X145.901 Y122.246 E79.16693
G1 X145.843 Y122.445 E79.17727
G1 X145.571 Y123.094 E79.21238
G1 X145.226 Y123.708 E79.24752
G1 X144.815 Y124.279 E79.28262
G1 X144.384 Y124.757 E79.31473
G1 X143.742 Y125.343 E79.35809
G1 X143.167 Y125.749 E79.39321
G1 X142.549 Y126.087 E79.42835
G1 X141.898 Y126.354 E79.46346
G1 X141.22 Y126.544 E79.49859
G1 X140.525 Y126.657 E79.53372
G1 X139.884 Y126.69 E79.56574
G1 X60.452 Y126.7 E83.52862
G1 X59.967 Y126.69 E83.55282
G1 X59.265 Y126.634 E83.58795
G1 X58.574 Y126.498 E83.62309
G1 X57.903 Y126.285 E83.65821
G1 X57.261 Y125.997 E83.69331
G1 X56.655 Y125.638 E83.72846
G1 X56.094 Y125.212 E83.7636
G1 X55.673 Y124.819 E83.79233
G1 X55.098 Y124.17 E83.83559
G1 X54.699 Y123.59 E83.87071
G1 X54.369 Y122.969 E83.9058
G1 X54.111 Y122.313 E83.94097
G1 X53.987 Y121.849 E83.96493
G1 X41.448 Y113.7 E84.711
G1 X40.117 Y113.7 E84.77741
G1 X39.414 Y113.66 E84.81254
G1 X38.72 Y113.541 E84.84767
G1 X38.045 Y113.343 E84.88276
G1 X37.396 Y113.071 E84.91787
G1 X36.782 Y112.726 E84.953
G1 X36.211 Y112.315 E84.9881
G1 X35.733 Y111.884 E85.02021
G1 X35.147 Y111.242 E85.06358
G1 X34.741 Y110.667 E85.0987
G1 X34.403 Y110.049 E85.13384
G1 X34.136 Y109.398 E85.16894
G1 X33.946 Y108.72 E85.20407
G1 X33.833 Y108.025 E85.2392
G1 X33.8 Y107.383 E85.27127
G1 X33.8 Y79.617 E86.65652
G1 X33.84 Y78.914 E86.69165
G1 X33.959 Y78.22 E86.72678
G1 X34.157 Y77.545 E86.76188
G1 X34.429 Y76.896 E86.79699
G1 X34.774 Y76.282 E86.83212
G1 X35.185 Y75.711 E86.86722
G1 X35.616 Y75.233 E86.89933
G1 X36.258 Y74.647 E86.9427
G1 X36.833 Y74.241 E86.97782
G1 X37.451 Y73.903 E87.01296
G0 F3600 X37.683 Y74.235
G1 F1800 X38.317 Y73.986 E87.04694
G1 X38.976 Y73.813 E87.08093
G1 X39.65 Y73.719 E87.11488
G1 X40.117 Y73.7 E87.1382
G1 X159.883 Y73.7 E93.11335
G1 X160.563 Y73.74 E93.14734
G1 X161.233 Y73.859 E93.18128
G1 X161.885 Y74.056 E93.21527
G1 X162.509 Y74.328 E93.24923
G1 X163.097 Y74.672 E93.28321
G1 X163.641 Y75.082 E93.3172
G1 X164.101 Y75.516 E93.34875
G1 X164.554 Y76.025 E93.38274
G1 X164.943 Y76.583 E93.41668
G1 X165.265 Y77.183 E93.45065
G1 X165.514 Y77.817 E93.48464
G1 X165.687 Y78.476 E93.51863
G1 X165.781 Y79.15 E93.55258
G1 X165.8 Y79.617 E93.5759
G1 X165.8 Y107.383 E94.96115
G1 X165.76 Y108.063 E94.99513
G1 X165.641 Y108.733 E95.02908
G1 X165.444 Y109.385 E95.06306
G1 X165.172 Y110.009 E95.09702
G1 X164.828 Y110.597 E95.13101
G1 X164.418 Y111.141 E95.16499
G1 X163.984 Y111.601 E95.19655
G1 X163.475 Y112.054 E95.23054
G1 X162.917 Y112.443 E95.26448
G1 X162.317 Y112.765 E95.29845
G1 X161.683 Y113.014 E95.33243
G1 X161.024 Y113.187 E95.36642
G1 X160.35 Y113.281 E95.40037
G1 X159.883 Y113.3 E95.42369
G1 X158.932 Y113.3 E95.47114
G1 X145.56 Y121.991 E96.2668
G1 X145.444 Y122.375 E96.28681
G1 X145.172 Y122.999 E96.32077
G1 X144.828 Y123.587 E96.35476
G1 X144.418 Y124.131 E96.38874
G1 X143.984 Y124.591 E96.42029
G1 X143.475 Y125.044 E96.45429
G1 X142.917 Y125.433 E96.48822
G1 X142.317 Y125.755 E96.5222
G1 X141.683 Y126.004 E96.55618
G1 X141.024 Y126.177 E96.59017
G1 X140.35 Y126.271 E96.62412
G1 X139.884 Y126.29 E96.64739
G1 X60.452 Y126.3 E100.61027
G1 X59.976 Y126.29 E100.63402
G1 X59.298 Y126.234 E100.66796
G1 X58.63 Y126.099 E100.70196
G1 X57.984 Y125.887 E100.73588
G1 X57.366 Y125.6 E100.76988
